assets/luts/bleachBypass.cube
TITLE "MSA Bleach Bypass"
LUT_3D_SIZE 5
0.000000 0.000000 0.000000
0.083375 0.011865 0.012221
0.221764 0.026868 0.027674
0.393402 0.044814 0.046159
0.576527 0.065509 0.067474
0.051000 0.148294 0.053602
0.174857 0.178426 0.075898
0.338627 0.210290 0.100750
0.520547 0.243692 0.127959
0.698852 0.278437 0.157323
0.131692 0.396851 0.138411
0.285554 0.435113 0.168510
0.464228 0.473702 0.200491
0.645952 0.512424 0.234153
0.808960 0.551083 0.269295
0.234806 0.672564 0.246786
0.408195 0.708820 0.282417
0.591297 0.743999 0.319255
0.762347 0.777905 0.357099
0.899581 0.810343 0.395748
0.353073 0.902327 0.371087
0.535513 0.926442 0.409979
0.712564 0.948074 0.449403
0.862462 0.967028 0.489157
0.963446 0.983108 0.529042
0.003592 0.003666 0.071782
0.091530 0.016618 0.096200
0.232956 0.032643 0.123008
0.406108 0.051544 0.152008
0.589221 0.073127 0.182997
0.057919 0.158321 0.163070
0.185281 0.189062 0.194734
0.351031 0.221471 0.228115
0.533407 0.255351 0.263011
0.710643 0.290507 0.299222
0.141205 0.409796 0.276053
0.297514 0.448191 0.312693
0.477110 0.486847 0.350374
0.658232 0.525570 0.388896
0.819114 0.564164 0.428058
0.246179 0.684985 0.403090
0.420957 0.720898 0.442435
0.603923 0.755666 0.482145
0.773313 0.789095 0.522021
0.907364 0.820990 0.561862
0.365571 0.910783 0.536541
0.548342 0.934077 0.576319
0.724200 0.954821 0.615788
0.871382 0.972821 0.654747
0.968123 0.987881 0.692996
0.007554 0.007708 0.189031
0.099947 0.021726 0.222124
0.244304 0.038749 0.256768
0.418862 0.058583 0.292763
0.601858 0.081032 0.329907
0.065134 0.168562 0.306163
0.195894 0.199891 0.343675
0.363517 0.232821 0.382064
0.546241 0.267157 0.421127
0.722302 0.302702 0.460665
0.150939 0.422794 0.435477
0.309588 0.461299 0.475138
0.490000 0.500000 0.515000
0.670412 0.538701 0.554862
0.829061 0.577206 0.594523
0.257698 0.697298 0.569335
0.433759 0.732843 0.608873
0.616483 0.767179 0.647936
0.784106 0.800109 0.686325
0.914866 0.831438 0.723837
0.378142 0.918968 0.700093
0.561138 0.941417 0.737237
0.735696 0.961251 0.773232
0.880053 0.978274 0.807876
0.972446 0.992292 0.840969
0.011877 0.012119 0.337004
0.108618 0.027179 0.375253
0.255800 0.045179 0.414212
0.431658 0.065923 0.453681
0.614429 0.089217 0.493459
0.072636 0.179010 0.468138
0.206687 0.210905 0.507979
0.376077 0.244334 0.547855
0.559043 0.279102 0.587565
0.733821 0.315015 0.626910
0.160886 0.435836 0.601942
0.321768 0.474430 0.641104
0.502890 0.513153 0.679626
0.682486 0.551809 0.717307
0.838795 0.590204 0.753947
0.269357 0.709493 0.730778
0.446593 0.744649 0.766989
0.628969 0.778529 0.801885
0.794719 0.810937 0.835266
0.922081 0.841679 0.866930
0.390779 0.926873 0.847003
0.573892 0.948456 0.877992
0.747044 0.967357 0.906992
0.888470 0.983382 0.933800
0.976408 0.996334 0.958218
0.016554 0.016892 0.500958
0.117538 0.032972 0.540843
0.267436 0.051926 0.580597
0.444487 0.073558 0.620021
0.626927 0.097673 0.658913
0.080419 0.189657 0.634252
0.217653 0.222095 0.672901
0.388703 0.256001 0.710745
0.571805 0.291180 0.747583
0.745194 0.327436 0.783214
0.171040 0.448917 0.760705
0.334048 0.487576 0.795847
0.515772 0.526298 0.829509
0.694446 0.564887 0.861490
0.848308 0.603149 0.891589
0.281148 0.721563 0.872677
0.459453 0.756308 0.902041
0.641373 0.789710 0.929250
0.805143 0.821574 0.954102
0.929000 0.851706 0.976398
0.403473 0.934491 0.962526
0.586598 0.955186 0.983841
0.758236 0.973132 1.000000
0.896625 0.988135 1.000000
0.980000 1.000000 1.000000
