assets/luts/bleachBypass.cube
TITLE "MSA Bleach Bypass"
LUT_3D_SIZE 17
0.000000 0.000000 0.000000
0.014496 0.002661 0.002741
0.033451 0.005528 0.005694
0.056524 0.008597 0.008855
0.083375 0.011865 0.012221
0.113665 0.015329 0.015789
0.147053 0.018987 0.019556
0.183199 0.022834 0.023519
0.221764 0.026868 0.027674
0.262406 0.031087 0.032019
0.304787 0.035486 0.036550
0.348566 0.040063 0.041265
0.393402 0.044814 0.046159
0.438957 0.049738 0.051230
0.484889 0.054830 0.056475
0.530859 0.060088 0.061891
0.576527 0.065509 0.067474
0.009569 0.023676 0.010057
0.027195 0.027750 0.013497
0.049043 0.032006 0.017138
0.074774 0.036444 0.020977
0.104047 0.041058 0.025010
0.136523 0.045847 0.029234
0.171860 0.050806 0.033647
0.209721 0.055934 0.038246
0.249763 0.061227 0.043026
0.291648 0.066681 0.047985
0.335034 0.072295 0.053120
0.379583 0.078065 0.058427
0.424954 0.083987 0.063904
0.470807 0.090059 0.069548
0.516801 0.096278 0.075354
0.562598 0.102641 0.081321
0.607856 0.109144 0.087445
0.021334 0.057045 0.022423
0.041926 0.062372 0.026526
0.066504 0.067861 0.030819
0.094729 0.073508 0.035300
0.126260 0.079311 0.039965
0.160758 0.085265 0.044811
0.197882 0.091369 0.049834
0.237292 0.097618 0.055032
0.278649 0.104011 0.060402
0.321612 0.110544 0.065940
0.365841 0.117214 0.071643
0.410996 0.124018 0.077508
0.456738 0.130952 0.083532
0.502725 0.138015 0.089712
0.548618 0.145202 0.096045
0.594077 0.152511 0.102527
0.638762 0.159939 0.109156
0.035182 0.098965 0.036977
0.058576 0.105388 0.041708
0.085721 0.111950 0.046619
0.116276 0.118649 0.051706
0.149901 0.125481 0.056967
0.186258 0.132443 0.062399
0.225004 0.139532 0.067997
0.265801 0.146745 0.073760
0.308308 0.154080 0.079683
0.352186 0.161532 0.085764
0.397094 0.169100 0.092000
0.442692 0.176780 0.098388
0.488640 0.184568 0.104924
0.534598 0.192462 0.111605
0.580226 0.200460 0.118428
0.625184 0.208557 0.125391
0.669132 0.216750 0.132489
0.051000 0.148294 0.053602
0.077032 0.155654 0.058925
0.106579 0.163131 0.064418
0.139301 0.170723 0.070076
0.174857 0.178426 0.075898
0.212908 0.186237 0.081879
0.253113 0.194154 0.088017
0.295133 0.202172 0.094308
0.338627 0.210290 0.100750
0.383256 0.218504 0.107339
0.428679 0.226811 0.114073
0.474556 0.235208 0.120947
0.520547 0.243692 0.127959
0.566312 0.252260 0.135106
0.611511 0.260909 0.142384
0.655805 0.269635 0.149791
0.698852 0.278437 0.157323
0.068673 0.203889 0.072177
0.097180 0.212028 0.078057
0.128966 0.220262 0.084096
0.163691 0.228588 0.090290
0.201014 0.237004 0.096636
0.240596 0.245506 0.103132
0.282096 0.254091 0.109774
0.325175 0.262757 0.116559
0.369492 0.271500 0.123484
0.414708 0.280317 0.130546
0.460482 0.289205 0.137741
0.506475 0.298161 0.145066
0.552345 0.307182 0.152519
0.597754 0.316265 0.160096
0.642361 0.325407 0.167794
0.685825 0.334605 0.175610
0.727808 0.343856 0.183541
0.088089 0.264609 0.092583
0.118907 0.273367 0.098984
0.152768 0.282200 0.105534
0.189332 0.291102 0.112228
0.228258 0.300073 0.119064
0.269207 0.309107 0.126039
0.311839 0.318203 0.133150
0.355813 0.327357 0.140393
0.400790 0.336566 0.147765
0.446429 0.345828 0.155263
0.492391 0.355139 0.162885
0.538335 0.364496 0.170626
0.583921 0.373895 0.178484
0.628809 0.383335 0.186456
0.672660 0.392812 0.194538
0.715133 0.402323 0.202728
0.755888 0.411864 0.211021
0.109133 0.329310 0.114701
0.142098 0.338530 0.121588
0.177871 0.347803 0.128612
0.216110 0.357123 0.135772
0.256476 0.366490 0.143062
0.298629 0.375898 0.150480
0.342228 0.385346 0.158024
0.386934 0.394831 0.165689
0.432406 0.404348 0.173474
0.478306 0.413896 0.181373
0.524291 0.423471 0.189386
0.570023 0.433070 0.197507
0.615161 0.442690 0.205735
0.659365 0.452328 0.214066
0.702296 0.461982 0.222497
0.743613 0.471647 0.231025
0.782976 0.481321 0.239646
0.131692 0.396851 0.138411
0.166641 0.406375 0.145748
0.204161 0.415929 0.153212
0.243912 0.425509 0.160801
0.285554 0.435113 0.168510
0.328746 0.444737 0.176336
0.373150 0.454379 0.184278
0.418424 0.464035 0.192330
0.464228 0.473702 0.200491
0.510223 0.483378 0.208756
0.556069 0.493059 0.217124
0.601425 0.502742 0.225591
0.645952 0.512424 0.234153
0.689308 0.522102 0.242807
0.731155 0.531774 0.251551
0.771153 0.541435 0.260381
0.808960 0.551083 0.269295
0.155652 0.466089 0.163594
0.192421 0.475758 0.171346
0.231525 0.485435 0.179214
0.272624 0.495117 0.187196
0.315378 0.504800 0.195289
0.359447 0.514481 0.203488
0.404491 0.524158 0.211791
0.450169 0.533828 0.220195
0.496142 0.543487 0.228697
0.542069 0.553132 0.237293
0.587611 0.562760 0.245980
0.632428 0.572369 0.254756
0.676179 0.581955 0.263617
0.718524 0.591515 0.272560
0.759124 0.601046 0.281582
0.797638 0.610545 0.290679
0.833726 0.620009 0.299849
0.180900 0.535882 0.190130
0.219326 0.545538 0.198262
0.259850 0.555180 0.206499
0.302134 0.564804 0.214839
0.345836 0.574408 0.223279
0.390617 0.583989 0.231816
0.436137 0.593543 0.240445
0.482056 0.603067 0.249165
0.528033 0.612559 0.257972
0.573730 0.622016 0.266863
0.618804 0.631433 0.275835
0.662918 0.640809 0.284885
0.705730 0.650140 0.294009
0.746900 0.659423 0.303205
0.786089 0.668656 0.312469
0.822956 0.677834 0.321798
0.857161 0.686956 0.331189
0.207323 0.605087 0.217901
0.247241 0.614572 0.226376
0.289022 0.624020 0.234947
0.332326 0.633429 0.243610
0.376813 0.642796 0.252362
0.422143 0.652117 0.261200
0.467976 0.661390 0.270121
0.513971 0.670611 0.279121
0.559790 0.679777 0.288198
0.605091 0.688886 0.297349
0.649535 0.697935 0.306570
0.692781 0.706919 0.315858
0.734490 0.715837 0.325210
0.774322 0.724686 0.334622
0.811935 0.733461 0.344093
0.846992 0.742160 0.353618
0.879150 0.750781 0.363195
0.234806 0.672564 0.246786
0.276053 0.681718 0.255570
0.318926 0.690815 0.264438
0.363087 0.699850 0.273388
0.408195 0.708820 0.282417
0.453910 0.717724 0.291521
0.499892 0.726557 0.300698
0.545801 0.735316 0.309943
0.591297 0.743999 0.319255
0.636039 0.752602 0.328630
0.679688 0.761123 0.338064
0.721904 0.769558 0.347555
0.762347 0.777905 0.357099
0.800676 0.786159 0.366693
0.836551 0.794319 0.376335
0.869633 0.802381 0.386021
0.899581 0.810343 0.395748
0.263236 0.737168 0.276666
0.305648 0.745834 0.285723
0.349451 0.754420 0.294854
0.394305 0.762923 0.304056
0.439870 0.771340 0.313326
0.485807 0.779667 0.322661
0.531774 0.787902 0.332057
0.577432 0.796041 0.341513
0.622441 0.804082 0.351023
0.666461 0.812021 0.360586
0.709152 0.819856 0.370198
0.750174 0.827583 0.379857
0.789186 0.835200 0.389558
0.825848 0.842702 0.399299
0.859822 0.850089 0.409076
0.890766 0.857355 0.418887
0.918340 0.864498 0.428728
0.292500 0.797758 0.307423
0.335913 0.805778 0.316717
0.380481 0.813695 0.326075
0.425865 0.821507 0.335493
0.471724 0.829211 0.344969
0.517718 0.836804 0.354499
0.563507 0.844282 0.364080
0.608751 0.851643 0.373709
0.653110 0.858883 0.383384
0.696244 0.866000 0.393100
0.737812 0.872991 0.402854
0.777476 0.879852 0.412644
0.814894 0.886580 0.422467
0.849727 0.893173 0.432318
0.881634 0.899627 0.442196
0.910276 0.905939 0.452097
0.935312 0.912106 0.462017
0.322483 0.853192 0.338936
0.366734 0.860406 0.348432
0.411904 0.867497 0.357981
0.457654 0.874460 0.367580
0.503643 0.881293 0.377226
0.549530 0.887993 0.386916
0.594977 0.894556 0.396646
0.639643 0.900980 0.406414
0.683188 0.907262 0.416217
0.725272 0.913398 0.426050
0.765555 0.919386 0.435912
0.803697 0.925222 0.445798
0.839357 0.930903 0.455706
0.872196 0.936427 0.465633
0.901874 0.941791 0.475576
0.928051 0.946990 0.485531
0.950386 0.952023 0.495495
0.353073 0.902327 0.371087
0.397998 0.908578 0.380749
0.443606 0.914683 0.390454
0.489558 0.920639 0.400198
0.535513 0.926442 0.409979
0.581131 0.932091 0.419793
0.626072 0.937581 0.429637
0.669996 0.942910 0.439508
0.712564 0.948074 0.449403
0.753434 0.953071 0.459318
0.792267 0.957898 0.469251
0.828723 0.962551 0.479199
0.862462 0.967028 0.489157
0.893144 0.971325 0.499124
0.920429 0.975439 0.509096
0.943976 0.979368 0.519069
0.963446 0.983108 0.529042
0.000863 0.000881 0.012877
0.015683 0.003612 0.016483
0.034937 0.006548 0.020287
0.058286 0.009685 0.024286
0.085389 0.013020 0.028477
0.115907 0.016550 0.032857
0.149499 0.020272 0.037423
0.185826 0.024183 0.042171
0.224547 0.028280 0.047099
0.265322 0.032560 0.052203
0.307812 0.037020 0.057481
0.351676 0.041657 0.062928
0.396574 0.046467 0.068542
0.442166 0.051449 0.074321
0.488111 0.056597 0.080259
0.534071 0.061911 0.086356
0.579705 0.067386 0.092606
0.010659 0.025039 0.025790
0.028591 0.029175 0.030050
0.050723 0.033493 0.034498
0.076713 0.037991 0.039131
0.106221 0.042665 0.043945
0.138908 0.047512 0.048937
0.174434 0.052529 0.054105
0.212458 0.057713 0.059444
0.252641 0.063061 0.064953
0.294642 0.068570 0.070627
0.338121 0.074237 0.076464
0.382738 0.080059 0.082461
0.428154 0.086033 0.088613
0.474028 0.092155 0.094920
0.520019 0.098423 0.101376
0.565789 0.104834 0.107979
0.610997 0.111384 0.114726
0.022639 0.058836 0.040863
0.043521 0.064219 0.045742
0.068366 0.069761 0.050798
0.096834 0.075461 0.056029
0.128584 0.081316 0.061430
0.163277 0.087321 0.067000
0.200572 0.093475 0.072734
0.240130 0.099774 0.078629
0.281610 0.106214 0.084683
0.324673 0.112794 0.090892
0.368978 0.119510 0.097253
0.414185 0.126358 0.103763
0.459955 0.133337 0.110419
0.505946 0.140442 0.117217
0.551820 0.147671 0.124155
0.597236 0.155020 0.131230
0.641854 0.162488 0.138437
0.036692 0.101131 0.057976
0.060359 0.107601 0.063439
0.087754 0.114210 0.069068
0.118535 0.120954 0.074861
0.152363 0.127830 0.080815
0.188898 0.134836 0.086925
0.227799 0.141968 0.093190
0.268727 0.149223 0.099606
0.311341 0.156598 0.106169
0.355302 0.164090 0.112877
0.400269 0.171696 0.119727
0.445903 0.179413 0.126715
0.491863 0.187237 0.133838
0.537809 0.195167 0.141094
0.583401 0.203198 0.148478
0.628299 0.211329 0.155989
0.672164 0.219555 0.163622
0.052702 0.150780 0.077010
0.078991 0.158180 0.083021
0.108772 0.165697 0.089188
0.141703 0.173326 0.095509
0.177445 0.181067 0.101978
0.215658 0.188914 0.108595
0.256002 0.196865 0.115355
0.298136 0.204918 0.122255
0.341720 0.213069 0.129293
0.386416 0.221315 0.136465
0.431881 0.229653 0.143768
0.477777 0.238080 0.151198
0.523764 0.246592 0.158754
0.569500 0.255188 0.166431
0.614647 0.263864 0.174226
0.658864 0.272616 0.182137
0.701812 0.281442 0.190160
0.070556 0.206642 0.097847
0.099304 0.214813 0.104370
0.131307 0.223079 0.111039
0.166224 0.231436 0.117851
0.203717 0.239882 0.124802
0.243444 0.248412 0.131889
0.285066 0.257025 0.139108
0.328243 0.265718 0.146458
0.372634 0.274486 0.153935
0.417900 0.283327 0.161535
0.463701 0.292239 0.169255
0.509695 0.301217 0.177093
0.555545 0.310260 0.185045
0.600908 0.319363 0.193108
0.645446 0.328524 0.201279
0.688818 0.337741 0.209554
0.730685 0.347009 0.217932
0.090141 0.267575 0.120366
0.121183 0.276359 0.127366
0.155245 0.285215 0.134502
0.191985 0.294141 0.141769
0.231064 0.303134 0.149166
0.272142 0.312189 0.156687
0.314879 0.321305 0.164332
0.358935 0.330479 0.172095
0.403969 0.339706 0.179975
0.449642 0.348985 0.187968
0.495613 0.358311 0.196070
0.541543 0.367683 0.204280
0.587092 0.377097 0.212593
0.631919 0.386550 0.221006
0.675684 0.396038 0.229517
0.718047 0.405560 0.238122
0.758669 0.415111 0.246818
0.111343 0.332435 0.144447
0.144516 0.341674 0.151890
0.180473 0.350963 0.159456
0.218872 0.360299 0.167144
0.259374 0.369680 0.174951
0.301639 0.379103 0.182872
0.345327 0.388563 0.190905
0.390098 0.398059 0.199047
0.435611 0.407587 0.207294
0.481528 0.417145 0.215644
0.527506 0.426728 0.224093
0.573208 0.436335 0.232639
0.618292 0.445962 0.241277
0.662418 0.455605 0.250006
0.705247 0.465263 0.258821
0.746438 0.474932 0.267720
0.785651 0.484608 0.276700
0.134049 0.400082 0.169973
0.169189 0.409616 0.177821
0.206877 0.419179 0.185784
0.246771 0.428768 0.193857
0.288533 0.438379 0.202037
0.331821 0.448010 0.210322
0.376296 0.457657 0.218709
0.421619 0.467317 0.227193
0.467448 0.476987 0.235773
0.513443 0.486665 0.244445
0.559266 0.496347 0.253205
0.604575 0.506030 0.262051
0.649030 0.515712 0.270980
0.692293 0.525388 0.279988
0.734021 0.535056 0.289072
0.773876 0.544713 0.298230
0.811517 0.554357 0.307457
0.158144 0.469371 0.196823
0.195088 0.479044 0.205042
0.234343 0.488723 0.213364
0.275569 0.498405 0.221787
0.318426 0.508088 0.230306
0.362574 0.517768 0.238920
0.407673 0.527443 0.247624
0.453383 0.537109 0.256416
0.499364 0.546764 0.265293
0.545276 0.556404 0.274251
0.590778 0.566026 0.283287
0.635531 0.575627 0.292398
0.679195 0.585204 0.301581
0.721429 0.594755 0.310833
0.761894 0.604275 0.320151
0.800249 0.613763 0.329531
0.836154 0.623215 0.338971
0.183516 0.539162 0.224877
0.222100 0.548814 0.233431
0.262758 0.558450 0.242078
0.305152 0.568068 0.250815
0.348941 0.577665 0.259638
0.393785 0.587236 0.268545
0.439344 0.596781 0.277531
0.485278 0.606295 0.286595
0.531247 0.615775 0.295733
0.576911 0.625218 0.304942
0.621930 0.634622 0.314218
0.665963 0.643983 0.323559
0.708671 0.653298 0.332961
0.749713 0.662564 0.342422
0.788750 0.671779 0.351938
0.825442 0.680938 0.361506
0.859448 0.690040 0.371122
0.210051 0.608312 0.254017
0.250110 0.617785 0.262871
0.292009 0.627220 0.271807
0.335407 0.636615 0.280823
0.379964 0.645967 0.289914
0.425341 0.655272 0.299078
0.471196 0.664527 0.308311
0.517190 0.673730 0.317612
0.562984 0.682877 0.326975
0.608236 0.691966 0.336399
0.652607 0.700993 0.345880
0.695757 0.709956 0.355415
0.737345 0.718850 0.365001
0.777032 0.727674 0.374635
0.814478 0.736424 0.384313
0.849343 0.745097 0.394033
0.881285 0.753690 0.403791
0.237635 0.675679 0.284124
0.279007 0.684814 0.293242
0.321982 0.693890 0.302431
0.366220 0.702904 0.311690
0.411382 0.711852 0.321013
0.457126 0.720731 0.330399
0.503114 0.729540 0.339844
0.549005 0.738274 0.349345
0.594459 0.746930 0.358899
0.639136 0.755506 0.368503
0.682696 0.763998 0.378153
0.724799 0.772403 0.387847
0.765104 0.780718 0.397581
0.803272 0.788941 0.407353
0.838963 0.797068 0.417158
0.871837 0.805096 0.426994
0.901553 0.813023 0.436858
0.266154 0.740120 0.315077
0.308675 0.748759 0.324423
0.352562 0.757317 0.333831
0.397477 0.765791 0.343297
0.443080 0.774178 0.352818
0.489029 0.782474 0.362390
0.534986 0.790677 0.372011
0.580610 0.798783 0.381678
0.625561 0.806790 0.391387
0.669499 0.814694 0.401135
0.712084 0.822492 0.410919
0.752976 0.830182 0.420736
0.791834 0.837761 0.430582
0.828320 0.845224 0.440456
0.862092 0.852570 0.450353
0.892811 0.859795 0.460270
0.920136 0.866896 0.470204
0.295496 0.800493 0.346757
0.339001 0.808478 0.356297
0.383638 0.816360 0.365887
0.429066 0.824136 0.375525
0.474945 0.831802 0.385208
0.520936 0.839356 0.394931
0.566698 0.846795 0.404693
0.611891 0.854116 0.414489
0.656175 0.861314 0.424317
0.699210 0.868389 0.434174
0.740656 0.875336 0.444056
0.780174 0.882152 0.453961
0.817422 0.888834 0.463885
0.852061 0.895380 0.473825
0.883750 0.901786 0.483778
0.912151 0.908050 0.493741
0.936922 0.914167 0.503710
0.325546 0.855656 0.379045
0.369872 0.862828 0.388743
0.415094 0.869876 0.398481
0.460871 0.876795 0.408255
0.506864 0.883583 0.418064
0.552732 0.890237 0.427903
0.598135 0.896753 0.437769
0.642734 0.903129 0.447660
0.686188 0.909362 0.457572
0.728156 0.915448 0.467502
0.768300 0.921385 0.477447
0.806279 0.927169 0.487404
0.841753 0.932797 0.497369
0.874382 0.938267 0.507341
0.903826 0.943575 0.517314
0.929744 0.948719 0.527287
0.951797 0.953694 0.537256
0.356190 0.904466 0.411822
0.401174 0.910668 0.421642
0.446818 0.916722 0.431492
0.492780 0.922627 0.441367
0.538723 0.928378 0.451266
0.584304 0.933973 0.461185
0.629186 0.939409 0.471121
0.673026 0.944682 0.481071
0.715486 0.949790 0.491031
0.756224 0.954730 0.500999
0.794902 0.959498 0.510971
0.831179 0.964091 0.520945
0.864715 0.968507 0.530917
0.895170 0.972743 0.540884
0.922204 0.976794 0.550842
0.945477 0.980659 0.560790
0.964648 0.984335 0.570722
0.001749 0.001785 0.029287
0.016891 0.004586 0.033702
0.036443 0.007591 0.038302
0.060066 0.010795 0.043084
0.087419 0.014197 0.048046
0.118164 0.017793 0.053183
0.151959 0.021579 0.058492
0.188464 0.025554 0.063971
0.227340 0.029714 0.069617
0.268247 0.034055 0.075425
0.310843 0.038575 0.081394
0.354791 0.043271 0.087519
0.399748 0.048140 0.093799
0.445376 0.053179 0.100229
0.491334 0.058384 0.106806
0.537282 0.063752 0.113528
0.582881 0.069282 0.120391
0.011771 0.026423 0.044870
0.030009 0.030621 0.049896
0.052421 0.035001 0.055096
0.078669 0.039559 0.060468
0.108411 0.044292 0.066008
0.141308 0.049197 0.071713
0.177020 0.054271 0.077580
0.215206 0.059511 0.083606
0.255527 0.064914 0.089788
0.297643 0.070477 0.096122
0.341213 0.076197 0.102606
0.385897 0.082071 0.109237
0.431356 0.088095 0.116010
0.477249 0.094267 0.122924
0.523236 0.100584 0.129975
0.568978 0.107043 0.137159
0.614134 0.113640 0.144474
0.023966 0.060646 0.062465
0.045137 0.066083 0.068066
0.070246 0.071680 0.073830
0.098955 0.077433 0.079755
0.130922 0.083339 0.085839
0.165808 0.089395 0.092076
0.203273 0.095598 0.098466
0.242977 0.101945 0.105003
0.284579 0.108433 0.111686
0.327740 0.115060 0.118511
0.372119 0.121821 0.125475
0.417377 0.128714 0.132575
0.463173 0.135735 0.139808
0.509167 0.142883 0.147170
0.555020 0.150153 0.154658
0.600391 0.157543 0.162270
0.644941 0.165050 0.170001
0.038221 0.103312 0.081952
0.062161 0.109830 0.088092
0.089803 0.116485 0.094385
0.120809 0.123275 0.100829
0.154838 0.130195 0.107420
0.191549 0.137244 0.114155
0.230604 0.144418 0.121031
0.271661 0.151714 0.128045
0.314380 0.159129 0.135193
0.358423 0.166660 0.142473
0.403448 0.174304 0.149881
0.449115 0.182058 0.157415
0.495085 0.189919 0.165071
0.541018 0.197883 0.172846
0.586572 0.205949 0.180736
0.631409 0.214112 0.188740
0.675189 0.222369 0.196853
0.054422 0.153280 0.103212
0.080967 0.160720 0.109855
0.110980 0.168275 0.116642
0.144119 0.175943 0.123568
0.180045 0.183720 0.130632
0.218418 0.191603 0.137828
0.258898 0.199589 0.145155
0.301145 0.207675 0.152610
0.344819 0.215859 0.160188
0.389579 0.224136 0.167888
0.435086 0.232505 0.175705
0.480999 0.240961 0.183637
0.526979 0.249502 0.191681
0.572686 0.258126 0.199833
0.617779 0.266828 0.208090
0.661918 0.275605 0.216450
0.704764 0.284456 0.224908
0.072456 0.209406 0.126124
0.101443 0.217610 0.133236
0.133661 0.225907 0.140481
0.168771 0.234295 0.147855
0.206431 0.242769 0.155355
0.246302 0.251328 0.162977
0.288044 0.259969 0.170720
0.331317 0.268687 0.178580
0.375780 0.277480 0.186553
0.421095 0.286346 0.194636
0.466920 0.295281 0.202827
0.512916 0.304281 0.211122
0.558742 0.313345 0.219518
0.604059 0.322468 0.228012
0.648526 0.331648 0.236601
0.691804 0.340882 0.245281
0.733552 0.350167 0.254050
0.092210 0.270549 0.150571
0.123475 0.279359 0.158116
0.157735 0.288239 0.165783
0.194650 0.297188 0.173568
0.233880 0.306202 0.181469
0.275086 0.315279 0.189483
0.317926 0.324414 0.197606
0.362061 0.333606 0.205835
0.407151 0.342852 0.214167
0.452856 0.352147 0.222599
0.498836 0.361489 0.231128
0.544750 0.370875 0.239750
0.590259 0.380303 0.248463
0.635023 0.389768 0.257264
0.678701 0.399268 0.266148
0.720953 0.408800 0.275114
0.761440 0.418361 0.284157
0.113569 0.335567 0.176432
0.146948 0.344823 0.184374
0.183087 0.354128 0.192428
0.221644 0.363480 0.200590
0.262281 0.372876 0.208857
0.304657 0.382311 0.217226
0.348432 0.391784 0.225693
0.393266 0.401292 0.234256
0.438818 0.410830 0.242912
0.484750 0.420397 0.251657
0.530721 0.429988 0.260488
0.576390 0.439602 0.269403
0.621418 0.449235 0.278397
0.665464 0.458884 0.287468
0.708189 0.468545 0.296613
0.749253 0.478217 0.305828
0.788315 0.487895 0.315111
0.136420 0.403316 0.203587
0.171750 0.412861 0.211892
0.209603 0.422433 0.220297
0.249639 0.432030 0.228800
0.291519 0.441648 0.237397
0.334902 0.451284 0.246086
0.379447 0.460936 0.254863
0.424816 0.470600 0.263724
0.470668 0.480273 0.272668
0.516663 0.489953 0.281691
0.562460 0.499636 0.290789
0.607720 0.509318 0.299960
0.652103 0.518998 0.309200
0.695269 0.528672 0.318507
0.736878 0.538337 0.327876
0.776589 0.547990 0.337306
0.814062 0.557628 0.346792
0.160650 0.472655 0.231919
0.197766 0.482330 0.240550
0.237170 0.492011 0.249271
0.278522 0.501694 0.258079
0.321480 0.511376 0.266971
0.365706 0.521055 0.275944
0.410859 0.530727 0.284995
0.456599 0.540390 0.294120
0.502586 0.550040 0.303316
0.548480 0.559674 0.312581
0.593941 0.569289 0.321911
0.638629 0.578882 0.331302
0.682203 0.588451 0.340753
0.724325 0.597992 0.350259
0.764653 0.607501 0.359818
0.802847 0.616977 0.369426
0.838569 0.626416 0.379081
0.186144 0.542442 0.261307
0.224884 0.552088 0.270229
0.265675 0.561719 0.279230
0.308178 0.571330 0.288308
0.352052 0.580918 0.297460
0.396957 0.590481 0.306681
0.442554 0.600015 0.315970
0.488501 0.609518 0.325323
0.534460 0.618986 0.334736
0.580089 0.628416 0.344207
0.625050 0.637806 0.353733
0.669001 0.647152 0.363311
0.711604 0.656451 0.372936
0.752517 0.665700 0.382607
0.791401 0.674896 0.392319
0.827915 0.684036 0.402071
0.861721 0.693117 0.411858
0.212790 0.611533 0.291632
0.252989 0.620993 0.300809
0.295004 0.630415 0.310055
0.338494 0.639796 0.319368
0.383120 0.649132 0.328743
0.428541 0.658421 0.338178
0.474417 0.667659 0.347669
0.520408 0.676843 0.357214
0.566175 0.685971 0.366809
0.611376 0.695039 0.376452
0.655673 0.704044 0.386138
0.698724 0.712984 0.395865
0.740191 0.721855 0.405630
0.779732 0.730654 0.415430
0.817008 0.739378 0.425261
0.851679 0.748024 0.435120
0.883405 0.756589 0.445005
0.240473 0.678788 0.322774
0.281969 0.687903 0.332171
0.325043 0.696958 0.341627
0.369357 0.705950 0.351138
0.414571 0.714875 0.360702
0.460344 0.723731 0.370315
0.506336 0.732514 0.379973
0.552207 0.741222 0.389675
0.597618 0.749851 0.399416
0.642228 0.758399 0.409194
0.685696 0.766862 0.419006
0.727684 0.775237 0.428847
0.767851 0.783522 0.438716
0.805857 0.791712 0.448609
0.841361 0.799806 0.458523
0.874025 0.807800 0.468455
0.903507 0.815691 0.478401
0.269081 0.743063 0.354614
0.311708 0.751675 0.364196
0.355679 0.760205 0.373826
0.400653 0.768649 0.383500
0.446291 0.777005 0.393217
0.492252 0.785270 0.402972
0.538197 0.793440 0.412762
0.583784 0.801513 0.422585
0.628675 0.809486 0.432437
0.672530 0.817354 0.442315
0.715007 0.825116 0.452216
0.755768 0.832769 0.462137
0.794471 0.840308 0.472074
0.830777 0.847732 0.482025
0.864347 0.855037 0.491987
0.894839 0.862220 0.501955
0.921914 0.869279 0.511928
0.298499 0.803216 0.387033
0.342095 0.811167 0.396764
0.386798 0.819013 0.406532
0.432269 0.826752 0.416335
0.478167 0.834380 0.426169
0.524152 0.841896 0.436031
0.569886 0.849295 0.445917
0.615026 0.856574 0.455826
0.659234 0.863731 0.465753
0.702169 0.870762 0.475696
0.743491 0.877665 0.485651
0.782861 0.884436 0.495615
0.819937 0.891073 0.505585
0.854380 0.897571 0.515559
0.885851 0.903929 0.525532
0.914008 0.910144 0.535502
0.938512 0.916211 0.545465
0.328614 0.858105 0.419912
0.373014 0.865236 0.429756
0.418286 0.872240 0.439627
0.464090 0.879115 0.449522
0.510085 0.885858 0.459438
0.555931 0.892465 0.469371
0.601289 0.898935 0.479319
0.645819 0.905262 0.489277
0.689180 0.911445 0.499244
0.731032 0.917481 0.509216
0.771035 0.923366 0.519190
0.808850 0.929098 0.529162
0.844135 0.934673 0.539130
0.876552 0.940088 0.549090
0.905760 0.945340 0.559040
0.931419 0.950427 0.568975
0.953188 0.955345 0.578894
0.359313 0.906588 0.453130
0.404354 0.912741 0.463052
0.450030 0.918745 0.472991
0.496003 0.924597 0.482943
0.541931 0.930296 0.492905
0.587475 0.935837 0.502874
0.632294 0.941218 0.512847
0.676049 0.946435 0.522821
0.718399 0.951487 0.532792
0.759005 0.956368 0.542757
0.797525 0.961077 0.552714
0.833621 0.965611 0.562659
0.866953 0.969966 0.572589
0.897179 0.974139 0.582500
0.923960 0.978128 0.592391
0.946957 0.981929 0.602257
0.965828 0.985539 0.612095
0.002659 0.002714 0.048998
0.018121 0.005584 0.054168
0.037969 0.008657 0.059510
0.061864 0.011929 0.065020
0.089466 0.015397 0.070697
0.120435 0.019057 0.076536
0.154431 0.022908 0.082534
0.191114 0.026946 0.088689
0.230143 0.031168 0.094996
0.271179 0.035570 0.101454
0.313882 0.040150 0.108059
0.357911 0.044906 0.114808
0.402926 0.049832 0.121697
0.448588 0.054928 0.128724
0.494557 0.060189 0.135885
0.540492 0.065612 0.143178
0.586053 0.071195 0.150598
0.012905 0.027828 0.067068
0.031447 0.032088 0.072804
0.054139 0.036529 0.078701
