assets/luts/bleachBypass.cube
TITLE "MSA Bleach Bypass"
LUT_3D_SIZE 9
0.000000 0.000000 0.000000
0.033451 0.005528 0.005694
0.083375 0.011865 0.012221
0.147053 0.018987 0.019556
0.221764 0.026868 0.027674
0.304787 0.035486 0.036550
0.393402 0.044814 0.046159
0.484889 0.054830 0.056475
0.576527 0.065509 0.067474
0.021334 0.057045 0.022423
0.066504 0.067861 0.030819
0.126260 0.079311 0.039965
0.197882 0.091369 0.049834
0.278649 0.104011 0.060402
0.365841 0.117214 0.071643
0.456738 0.130952 0.083532
0.548618 0.145202 0.096045
0.638762 0.159939 0.109156
0.051000 0.148294 0.053602
0.106579 0.163131 0.064418
0.174857 0.178426 0.075898
0.253113 0.194154 0.088017
0.338627 0.210290 0.100750
0.428679 0.226811 0.114073
0.520547 0.243692 0.127959
0.611511 0.260909 0.142384
0.698852 0.278437 0.157323
0.088089 0.264609 0.092583
0.152768 0.282200 0.105534
0.228258 0.300073 0.119064
0.311839 0.318203 0.133150
0.400790 0.336566 0.147765
0.492391 0.355139 0.162885
0.583921 0.373895 0.178484
0.672660 0.392812 0.194538
0.755888 0.411864 0.211021
0.131692 0.396851 0.138411
0.204161 0.415929 0.153212
0.285554 0.435113 0.168510
0.373150 0.454379 0.184278
0.464228 0.473702 0.200491
0.556069 0.493059 0.217124
0.645952 0.512424 0.234153
0.731155 0.531774 0.251551
0.808960 0.551083 0.269295
0.180900 0.535882 0.190130
0.259850 0.555180 0.206499
0.345836 0.574408 0.223279
0.436137 0.593543 0.240445
0.528033 0.612559 0.257972
0.618804 0.631433 0.275835
0.705730 0.650140 0.294009
0.786089 0.668656 0.312469
0.857161 0.686956 0.331189
0.234806 0.672564 0.246786
0.318926 0.690815 0.264438
0.408195 0.708820 0.282417
0.499892 0.726557 0.300698
0.591297 0.743999 0.319255
0.679688 0.761123 0.338064
0.762347 0.777905 0.357099
0.836551 0.794319 0.376335
0.899581 0.810343 0.395748
0.292500 0.797758 0.307423
0.380481 0.813695 0.326075
0.471724 0.829211 0.344969
0.563507 0.844282 0.364080
0.653110 0.858883 0.383384
0.737812 0.872991 0.402854
0.814894 0.886580 0.422467
0.881634 0.899627 0.442196
0.935312 0.912106 0.462017
0.353073 0.902327 0.371087
0.443606 0.914683 0.390454
0.535513 0.926442 0.409979
0.626072 0.937581 0.429637
0.712564 0.948074 0.449403
0.792267 0.957898 0.469251
0.862462 0.967028 0.489157
0.920429 0.975439 0.509096
0.963446 0.983108 0.529042
0.001749 0.001785 0.029287
0.036443 0.007591 0.038302
0.087419 0.014197 0.048046
0.151959 0.021579 0.058492
0.227340 0.029714 0.069617
0.310843 0.038575 0.081394
0.399748 0.048140 0.093799
0.491334 0.058384 0.106806
0.582881 0.069282 0.120391
0.023966 0.060646 0.062465
0.070246 0.071680 0.073830
0.130922 0.083339 0.085839
0.203273 0.095598 0.098466
0.284579 0.108433 0.111686
0.372119 0.121821 0.125475
0.463173 0.135735 0.139808
0.555020 0.150153 0.154658
0.644941 0.165050 0.170001
0.054422 0.153280 0.103212
0.110980 0.168275 0.116642
0.180045 0.183720 0.130632
0.258898 0.199589 0.145155
0.344819 0.215859 0.160188
0.435086 0.232505 0.175705
0.526979 0.249502 0.191681
0.617779 0.266828 0.208090
0.704764 0.284456 0.224908
0.092210 0.270549 0.150571
0.157735 0.288239 0.165783
0.233880 0.306202 0.181469
0.317926 0.324414 0.197606
0.407151 0.342852 0.214167
0.498836 0.361489 0.231128
0.590259 0.380303 0.248463
0.678701 0.399268 0.266148
0.761440 0.418361 0.284157
0.136420 0.403316 0.203587
0.209603 0.422433 0.220297
0.291519 0.441648 0.237397
0.379447 0.460936 0.254863
0.470668 0.480273 0.272668
0.562460 0.499636 0.290789
0.652103 0.518998 0.309200
0.736878 0.538337 0.327876
0.814062 0.557628 0.346792
0.186144 0.542442 0.261307
0.265675 0.561719 0.279230
0.352052 0.580918 0.297460
0.442554 0.600015 0.315970
0.534460 0.618986 0.334736
0.625050 0.637806 0.353733
0.711604 0.656451 0.372936
0.791401 0.674896 0.392319
0.861721 0.693117 0.411858
0.240473 0.678788 0.322774
0.325043 0.696958 0.341627
0.414571 0.714875 0.360702
0.506336 0.732514 0.379973
0.597618 0.749851 0.399416
0.685696 0.766862 0.419006
0.767851 0.783522 0.438716
0.841361 0.799806 0.458523
0.903507 0.815691 0.478401
0.298499 0.803216 0.387033
0.386798 0.819013 0.406532
0.478167 0.834380 0.426169
0.569886 0.849295 0.445917
0.659234 0.863731 0.465753
0.743491 0.877665 0.485651
0.819937 0.891073 0.505585
0.885851 0.903929 0.525532
0.938512 0.916211 0.545465
0.359313 0.906588 0.453130
0.450030 0.918745 0.472991
0.541931 0.930296 0.492905
0.632294 0.941218 0.512847
0.718399 0.951487 0.532792
0.797525 0.961077 0.552714
0.866953 0.969966 0.572589
0.923960 0.978128 0.592391
0.965828 0.985539 0.612095
0.003592 0.003666 0.071782
0.039515 0.009746 0.083680
0.091530 0.016618 0.096200
0.156917 0.024259 0.109318
0.232956 0.032643 0.123008
0.316926 0.041746 0.137247
0.406108 0.051544 0.152008
0.497779 0.062012 0.167266
0.589221 0.073127 0.182997
0.026682 0.064321 0.114237
0.074059 0.075570 0.128130
0.135641 0.087436 0.142562
0.208708 0.099893 0.157507
0.290539 0.112919 0.172940
0.378414 0.126488 0.188837
0.469612 0.140577 0.205172
0.561413 0.155160 0.221920
0.651097 0.170214 0.239056
0.057919 0.158321 0.163070
0.115442 0.173471 0.178675
0.185281 0.189062 0.194734
0.264718 0.205071 0.211223
0.351031 0.221471 0.228115
0.441501 0.238239 0.245386
0.533407 0.255351 0.263011
0.624027 0.272782 0.280965
0.710643 0.290507 0.299222
0.096397 0.276525 0.217327
0.162754 0.294310 0.234360
0.239542 0.312360 0.251763
0.324039 0.330652 0.269511
0.413525 0.349160 0.287578
0.505280 0.367860 0.305940
0.596583 0.386728 0.324571
0.684713 0.405739 0.343446
0.766952 0.424870 0.362541
0.141205 0.409796 0.276053
0.215088 0.428949 0.294230
0.297514 0.448191 0.312693
0.385761 0.467499 0.331416
0.477110 0.486847 0.350374
0.568841 0.506212 0.369543
0.658232 0.525570 0.388896
0.742563 0.544895 0.408409
0.819114 0.564164 0.428058
0.191435 0.548995 0.338292
0.271534 0.568249 0.357330
0.358288 0.587416 0.376568
0.448977 0.606473 0.395983
0.540879 0.625396 0.415548
0.631275 0.644159 0.435239
0.717445 0.662738 0.455031
0.796667 0.681110 0.474898
0.866221 0.699250 0.494816
0.246179 0.684985 0.403090
0.331184 0.703072 0.422704
0.420957 0.720898 0.442435
0.512777 0.738437 0.462257
0.603923 0.755666 0.482145
0.691675 0.772560 0.502075
0.773313 0.789095 0.522021
0.846116 0.805247 0.541959
0.907364 0.820990 0.561862
0.304527 0.808627 0.469491
0.393129 0.824281 0.489398
0.484611 0.839497 0.509336
0.576253 0.854252 0.529282
0.665333 0.868521 0.549210
0.749132 0.882279 0.569095
0.824928 0.895502 0.588912
0.890003 0.908166 0.608635
0.941634 0.920247 0.628241
0.365571 0.910783 0.536541
0.456461 0.922736 0.556456
0.548342 0.934077 0.576319
0.638496 0.944780 0.596105
0.724200 0.954821 0.615788
0.802736 0.964176 0.635344
0.871382 0.972821 0.654747
0.927418 0.980730 0.673973
0.968123 0.987881 0.692996
0.005527 0.005640 0.125645
0.042665 0.011992 0.139984
0.095706 0.019128 0.154840
0.161928 0.027024 0.170189
0.238611 0.035655 0.186006
0.323035 0.044997 0.202266
0.412479 0.055025 0.218943
0.504223 0.065716 0.236013
0.595547 0.077044 0.253450
0.029481 0.068071 0.175895
0.077941 0.079532 0.191876
0.140416 0.091601 0.208291
0.214186 0.104255 0.225114
0.296529 0.117468 0.242320
0.384725 0.131216 0.259885
0.476054 0.145475 0.277782
0.567795 0.160221 0.295988
0.657229 0.175429 0.314477
0.061490 0.163415 0.231335
0.119964 0.178718 0.248675
0.190564 0.194453 0.266363
0.270571 0.210597 0.284376
0.357265 0.227125 0.302688
0.447923 0.244013 0.321273
0.539827 0.261236 0.340108
0.630256 0.278769 0.359166
0.716489 0.296590 0.378422
0.100648 0.282533 0.291009
0.167825 0.300411 0.309424
0.245241 0.318546 0.328103
0.330176 0.336914 0.347021
0.419909 0.355490 0.366155
0.511721 0.374250 0.385477
0.602891 0.393169 0.404964
0.690697 0.412224 0.424591
0.772421 0.431390 0.444331
0.146045 0.416289 0.353964
0.220615 0.435475 0.373169
0.303537 0.454742 0.392554
0.392090 0.474066 0.412095
0.483555 0.493423 0.431766
0.575210 0.512788 0.451542
0.664335 0.532138 0.471397
0.748210 0.551446 0.491308
0.824114 0.570690 0.511249
0.196772 0.555542 0.419243
0.277426 0.574769 0.438955
0.364544 0.593902 0.458762
0.455406 0.612916 0.478641
0.547292 0.631787 0.498566
0.637480 0.650490 0.518511
0.723252 0.669002 0.538452
0.801885 0.687298 0.558363
0.870660 0.705353 0.578219
0.251920 0.691156 0.485891
0.337349 0.709157 0.505826
0.427353 0.726888 0.525772
0.519215 0.744324 0.545705
0.610212 0.761442 0.565600
0.697624 0.778217 0.585430
0.778732 0.794624 0.605172
0.850814 0.810640 0.624800
0.911150 0.826240 0.644289
0.310582 0.813991 0.552954
0.399475 0.829499 0.572828
0.491057 0.844561 0.592629
0.582607 0.859153 0.612332
0.671406 0.873251 0.631912
0.754733 0.886831 0.651344
0.829867 0.899867 0.670603
0.894089 0.912335 0.689664
0.944676 0.924212 0.708501
0.371848 0.914910 0.619476
0.462896 0.926658 0.639005
0.554745 0.937784 0.658377
0.644675 0.948265 0.677567
0.729966 0.958076 0.696549
0.807898 0.967193 0.715299
0.875749 0.975590 0.733791
0.930800 0.983245 0.752000
0.970330 0.990132 0.769902
0.007554 0.007708 0.189031
0.045894 0.014329 0.205371
0.099947 0.021726 0.222124
0.166990 0.029874 0.239265
0.244304 0.038749 0.256768
0.329168 0.048327 0.274609
0.418862 0.058583 0.292763
0.510665 0.069493 0.311203
0.601858 0.081032 0.329907
0.032361 0.071893 0.245597
0.081892 0.083564 0.263226
0.145247 0.095834 0.281183
0.219706 0.108680 0.299444
0.302547 0.122078 0.317984
0.391052 0.136002 0.336776
0.482498 0.150429 0.355796
0.574166 0.165335 0.375020
0.663336 0.180694 0.394421
0.065134 0.168562 0.306163
0.124546 0.184014 0.324797
0.195894 0.199891 0.343675
0.276458 0.216169 0.362773
0.363517 0.232821 0.382064
0.454352 0.249825 0.401524
0.546241 0.267157 0.421127
0.636465 0.284790 0.440850
0.722302 0.302702 0.460665
0.104963 0.288575 0.369775
0.172945 0.306543 0.389130
0.250977 0.324759 0.408646
0.336336 0.343200 0.428295
0.426304 0.361842 0.448054
0.518160 0.380658 0.467898
0.609182 0.399626 0.487801
0.696651 0.418722 0.507738
0.777847 0.437919 0.527684
0.150939 0.422794 0.435477
0.226182 0.442010 0.455270
0.309588 0.461299 0.475138
0.398434 0.480638 0.495057
0.490000 0.500000 0.515000
0.581566 0.519362 0.534943
0.670412 0.538701 0.554862
0.753818 0.557990 0.574730
0.829061 0.577206 0.594523
0.202153 0.562081 0.502316
0.283349 0.581278 0.522262
0.370818 0.600374 0.542199
0.461840 0.619342 0.562102
0.553696 0.638158 0.581946
0.643664 0.656800 0.601705
0.729023 0.675241 0.621354
0.807055 0.693457 0.640870
0.875037 0.711425 0.660225
0.257698 0.697298 0.569335
0.343535 0.715210 0.589150
0.433759 0.732843 0.608873
0.525648 0.750175 0.628476
0.616483 0.767179 0.647936
0.703542 0.783831 0.667227
0.784106 0.800109 0.686325
0.855454 0.815986 0.705203
0.914866 0.831438 0.723837
0.316664 0.819306 0.635579
0.405834 0.834665 0.654980
0.497502 0.849571 0.674204
0.588948 0.863998 0.693224
0.677453 0.877922 0.712016
0.760294 0.891320 0.730556
0.834753 0.904166 0.748817
0.898108 0.916436 0.766774
0.947639 0.928107 0.784403
0.378142 0.918968 0.700093
0.469335 0.930507 0.718797
0.561138 0.941417 0.737237
0.650832 0.951673 0.755391
0.735696 0.961251 0.773232
0.813010 0.970126 0.790735
0.880053 0.978274 0.807876
0.934106 0.985671 0.824629
0.972446 0.992292 0.840969
0.009670 0.009868 0.260098
0.049200 0.016755 0.278000
0.104251 0.024410 0.296209
0.172102 0.032807 0.314701
0.250034 0.041924 0.333451
0.335325 0.051735 0.352433
0.425255 0.062216 0.371623
0.517104 0.073342 0.390995
0.608152 0.085090 0.410524
0.035324 0.075788 0.321499
0.085911 0.087665 0.340336
0.150133 0.100133 0.359397
0.225267 0.113169 0.378656
0.308594 0.126749 0.398088
0.397393 0.140847 0.417668
0.488943 0.155439 0.437371
0.580525 0.170501 0.457172
0.669418 0.186009 0.477046
0.068850 0.173760 0.385711
0.129186 0.189360 0.405200
0.201268 0.205376 0.424828
0.282376 0.221783 0.444570
0.369788 0.238558 0.464400
0.460785 0.255676 0.484295
0.552647 0.273112 0.504228
0.642651 0.290843 0.524174
0.728080 0.308844 0.544109
0.109340 0.294647 0.451781
0.178115 0.312702 0.471637
0.256748 0.330998 0.491548
0.342520 0.349510 0.511489
0.432708 0.368213 0.531434
0.524594 0.387084 0.551359
0.615456 0.406098 0.571238
0.702574 0.425231 0.591045
0.783228 0.444458 0.610757
0.155886 0.429310 0.518751
0.231790 0.448554 0.538692
0.315665 0.467862 0.558603
0.404790 0.487212 0.578458
0.496445 0.506577 0.598234
0.587910 0.525934 0.617905
0.676463 0.545258 0.637446
0.759385 0.564525 0.656831
0.833955 0.583711 0.676036
0.207579 0.568610 0.585669
0.289303 0.587776 0.605409
0.377109 0.606831 0.625036
0.468279 0.625750 0.644523
0.560091 0.644510 0.663845
0.649824 0.663086 0.682979
0.734759 0.681454 0.701897
0.812175 0.699589 0.720576
0.879352 0.717467 0.738991
0.263511 0.703410 0.651578
0.349744 0.721231 0.670834
0.440173 0.738764 0.689892
0.532077 0.755987 0.708727
0.622735 0.772875 0.727312
0.709429 0.789403 0.745624
0.789436 0.805547 0.763637
0.860036 0.821282 0.781325
0.918510 0.836585 0.798665
0.322771 0.824571 0.715523
0.412205 0.839779 0.734012
0.503946 0.854525 0.752218
0.595275 0.868784 0.770115
0.683471 0.882532 0.787680
0.765814 0.895745 0.804886
0.839584 0.908399 0.821709
0.902059 0.920468 0.838124
0.950519 0.931929 0.854105
0.384453 0.922956 0.776550
0.475777 0.934284 0.793987
0.567521 0.944975 0.811057
0.656965 0.955003 0.827734
0.741389 0.964345 0.843994
0.818072 0.972976 0.859811
0.884294 0.980872 0.875160
0.937335 0.988008 0.890016
0.974473 0.994360 0.904355
0.011877 0.012119 0.337004
0.052582 0.019270 0.356027
0.108618 0.027179 0.375253
0.177264 0.035824 0.394656
0.255800 0.045179 0.414212
0.341504 0.055220 0.433895
0.431658 0.065923 0.453681
0.523539 0.077264 0.473544
0.614429 0.089217 0.493459
0.038366 0.079753 0.401759
0.089997 0.091834 0.421365
0.155072 0.104498 0.441088
0.230868 0.117721 0.460905
0.314667 0.131479 0.480790
0.403747 0.145748 0.500718
0.495389 0.160503 0.520664
0.586871 0.175719 0.540602
0.675473 0.191373 0.560509
0.072636 0.179010 0.468138
0.133884 0.194753 0.488041
0.206687 0.210905 0.507979
0.288325 0.227440 0.527925
0.376077 0.244334 0.547855
0.467223 0.261563 0.567743
0.559043 0.279102 0.587565
0.648816 0.296928 0.607296
0.733821 0.315015 0.626910
0.113779 0.300750 0.535184
0.183333 0.318890 0.555102
0.262555 0.337262 0.574969
0.348725 0.355841 0.594761
0.439121 0.374604 0.614452
0.531023 0.393527 0.634017
0.621712 0.412584 0.653432
0.708466 0.431751 0.672670
0.788565 0.451005 0.691708
0.160886 0.435836 0.601942
0.237437 0.455105 0.621591
0.321768 0.474430 0.641104
0.411159 0.493788 0.660457
0.502890 0.513153 0.679626
0.594239 0.532501 0.698584
0.682486 0.551809 0.717307
0.764912 0.571051 0.735770
0.838795 0.590204 0.753947
0.213048 0.575130 0.667459
0.295287 0.594261 0.686554
0.383417 0.613272 0.705429
0.474720 0.632140 0.724060
0.566475 0.650840 0.742422
0.655961 0.669348 0.760489
0.740458 0.687640 0.778237
0.817246 0.705690 0.795640
0.883603 0.723475 0.812673
0.269357 0.709493 0.730778
0.355973 0.727218 0.749035
0.446593 0.744649 0.766989
0.538499 0.761761 0.784614
0.628969 0.778529 0.801885
0.715282 0.794929 0.818777
0.794719 0.810937 0.835266
0.864558 0.826529 0.851325
0.922081 0.841679 0.866930
0.328903 0.829786 0.790944
0.418587 0.844840 0.808080
0.510388 0.859423 0.824828
0.601586 0.873512 0.841163
0.689461 0.887081 0.857060
0.771292 0.900107 0.872493
0.844359 0.912564 0.887438
0.905941 0.924430 0.901870
0.953318 0.935679 0.915763
0.390779 0.926873 0.847003
0.482221 0.937988 0.862734
0.573892 0.948456 0.877992
0.663074 0.958254 0.892753
0.747044 0.967357 0.906992
0.823083 0.975741 0.920682
0.888470 0.983382 0.933800
0.940485 0.990254 0.946320
0.976408 0.996334 0.958218
0.014172 0.014461 0.417905
0.056040 0.021872 0.437609
0.113047 0.030034 0.457411
0.182475 0.038923 0.477286
0.261601 0.048513 0.497208
0.347706 0.058782 0.517153
0.438069 0.069704 0.537095
0.529970 0.081255 0.557009
0.620687 0.093412 0.576870
0.041488 0.083789 0.484535
0.094149 0.096071 0.504468
0.160063 0.108927 0.524415
0.236509 0.122335 0.544349
0.320766 0.136269 0.564247
0.410114 0.150705 0.584083
0.501833 0.165620 0.603831
0.593202 0.180987 0.623468
0.681501 0.196784 0.642967
0.076493 0.184309 0.551599
0.138639 0.200194 0.571477
0.212149 0.216478 0.591284
0.294304 0.233138 0.610994
0.382382 0.250149 0.630584
0.473664 0.267486 0.650027
0.565429 0.285125 0.669298
0.654957 0.303042 0.688373
0.739527 0.321212 0.707226
0.118279 0.306883 0.618142
0.188599 0.325104 0.637681
0.268396 0.343549 0.657064
0.354950 0.362194 0.676267
0.445540 0.381014 0.695264
0.537446 0.399985 0.714030
0.627948 0.419082 0.732540
0.714325 0.438281 0.750770
0.793856 0.457558 0.768693
0.165938 0.442372 0.683208
0.243122 0.461663 0.702124
0.327897 0.481002 0.720800
0.417540 0.500364 0.739211
0.509332 0.519727 0.757332
0.600553 0.539064 0.775137
0.688481 0.558352 0.792603
0.770397 0.577567 0.809703
0.843580 0.596684 0.826413
0.218560 0.581639 0.745843
0.301299 0.600732 0.763852
0.389741 0.619697 0.781537
0.481164 0.638511 0.798872
0.572849 0.657148 0.815833
0.662074 0.675586 0.832394
0.746120 0.693798 0.848531
0.822265 0.711761 0.864217
0.887790 0.729451 0.879429
0.275236 0.715544 0.805092
0.362221 0.733172 0.821910
0.453021 0.750498 0.838319
0.544914 0.767495 0.854295
0.635181 0.784141 0.869812
0.721102 0.800411 0.884845
0.799955 0.816280 0.899368
0.869020 0.831725 0.913358
0.925578 0.846720 0.926788
0.335059 0.834950 0.859999
0.424980 0.849847 0.875342
0.516827 0.864265 0.890192
0.607881 0.878179 0.904525
0.695421 0.891567 0.918314
0.776727 0.904402 0.931534
0.849078 0.916661 0.944161
0.909754 0.928320 0.956170
0.956034 0.939354 0.967535
0.397119 0.930718 0.909609
0.488666 0.941616 0.923194
0.580252 0.951860 0.936201
0.669157 0.961425 0.948606
0.752660 0.970286 0.960383
0.828041 0.978421 0.971508
0.892581 0.985803 0.981954
0.943557 0.992409 0.991698
0.978251 0.998215 1.000000
0.016554 0.016892 0.500958
0.059571 0.024561 0.520904
0.117538 0.032972 0.540843
0.187733 0.042102 0.560749
0.267436 0.051926 0.580597
0.353928 0.062419 0.600363
0.444487 0.073558 0.620021
0.536394 0.085317 0.639546
0.626927 0.097673 0.658913
0.044688 0.087894 0.567983
0.098366 0.100373 0.587804
0.165106 0.113420 0.607533
0.242188 0.127009 0.627146
0.326890 0.141117 0.646616
0.416493 0.155718 0.665920
0.508276 0.170789 0.685031
0.599519 0.186305 0.703925
0.687500 0.202242 0.722577
0.080419 0.189657 0.634252
0.143449 0.205681 0.653665
0.217653 0.222095 0.672901
0.300312 0.238877 0.691936
0.388703 0.256001 0.710745
0.480108 0.273443 0.729302
0.571805 0.291180 0.747583
0.661074 0.309185 0.765562
0.745194 0.327436 0.783214
0.122839 0.313044 0.698811
0.193911 0.331344 0.717531
0.274270 0.349860 0.735991
0.361196 0.368567 0.754165
0.451967 0.387441 0.772028
0.543863 0.406457 0.789555
0.634164 0.425592 0.806721
0.720150 0.444820 0.823501
0.799100 0.464118 0.839870
0.171040 0.448917 0.760705
0.248845 0.468226 0.778449
0.334048 0.487576 0.795847
0.423931 0.506941 0.812876
0.515772 0.526298 0.829509
0.606850 0.545621 0.845722
0.694446 0.564887 0.861490
0.775839 0.584071 0.876788
0.848308 0.603149 0.891589
0.224112 0.588136 0.818979
0.307340 0.607188 0.835462
0.396079 0.626105 0.851516
0.487609 0.644861 0.867115
0.579210 0.663434 0.882235
0.668161 0.681797 0.896850
0.751742 0.699927 0.910936
0.827232 0.717800 0.924466
0.891911 0.735391 0.937417
0.281148 0.721563 0.872677
0.368489 0.739091 0.887616
0.459453 0.756308 0.902041
0.551321 0.773189 0.915927
0.641373 0.789710 0.929250
0.726887 0.805846 0.941983
0.805143 0.821574 0.954102
0.873421 0.836869 0.965582
0.929000 0.851706 0.976398
0.341238 0.840061 0.920844
0.431382 0.854798 0.933955
0.523262 0.869048 0.946468
0.614159 0.882786 0.958357
0.701351 0.895989 0.969598
0.782118 0.908631 0.980166
0.853740 0.920689 0.990035
0.913496 0.932139 0.999181
0.958666 0.942955 1.000000
0.403473 0.934491 0.962526
0.495111 0.945170 0.973525
0.586598 0.955186 0.983841
0.675213 0.964514 0.993450
0.758236 0.973132 1.000000
0.832947 0.981013 1.000000
0.896625 0.988135 1.000000
0.946549 0.994472 1.000000
0.980000 1.000000 1.000000
