assets/luts/coolFilm.cube
TITLE "MSA Cool Film"
LUT_3D_SIZE 5
0.000000 0.000000 0.000000
0.165870 0.000000 0.000000
0.426044 0.000000 0.000000
0.686218 0.003972 0.003972
0.864232 0.008080 0.008080
0.002411 0.185567 0.002411
0.180425 0.189675 0.006519
0.440599 0.195679 0.012523
0.700773 0.201683 0.018527
0.878787 0.205791 0.022635
0.023683 0.474529 0.023683
0.201697 0.478637 0.027791
0.461871 0.484641 0.033795
0.722046 0.490645 0.039799
0.900059 0.494753 0.043907
0.044956 0.763491 0.044956
0.222970 0.767600 0.049064
0.483144 0.773604 0.055068
0.743318 0.779608 0.061072
0.921332 0.783716 0.065180
0.059510 0.961202 0.059510
0.237524 0.965311 0.063619
0.497699 0.971315 0.069623
0.757873 0.977319 0.075627
0.935887 0.981427 0.079735
0.000000 0.000000 0.187401
0.167458 0.000000 0.191509
0.427632 0.000000 0.197513
0.687806 0.005560 0.203517
0.865820 0.009668 0.207625
0.003999 0.187155 0.201956
0.182013 0.191263 0.206064
0.442187 0.197267 0.212068
0.702361 0.203271 0.218072
0.880375 0.207379 0.222180
0.025271 0.476117 0.223228
0.203285 0.480225 0.227336
0.463459 0.486229 0.233340
0.723634 0.492233 0.239344
0.901647 0.496341 0.243452
0.046544 0.765080 0.244500
0.224558 0.769188 0.248608
0.484732 0.775192 0.254612
0.744906 0.781196 0.260617
0.922920 0.785304 0.264725
0.061099 0.962791 0.259055
0.239112 0.966899 0.263163
0.499287 0.972903 0.269167
0.759461 0.978907 0.275171
0.937475 0.983015 0.279279
0.000000 0.000000 0.479043
0.169779 0.000000 0.483151
0.429953 0.001877 0.489155
0.690127 0.007881 0.495159
0.868141 0.011989 0.499267
0.006320 0.189476 0.493598
0.184334 0.193584 0.497706
0.444508 0.199588 0.503710
0.704682 0.205592 0.509714
0.882696 0.209700 0.513822
0.027592 0.478438 0.514870
0.205606 0.482546 0.518978
0.465780 0.488550 0.524982
0.725955 0.494554 0.530986
0.903968 0.498662 0.535094
0.048865 0.767401 0.536143
0.226879 0.771509 0.540251
0.487053 0.777513 0.546255
0.747227 0.783517 0.552259
0.925241 0.787625 0.556367
0.063420 0.965112 0.550698
0.241433 0.969220 0.554806
0.501608 0.975224 0.560810
0.761782 0.981228 0.566814
0.939796 0.985336 0.570922
0.000000 0.000000 0.770685
0.172100 0.000000 0.774793
0.432274 0.004198 0.780797
0.692448 0.010202 0.786802
0.870462 0.014310 0.790910
0.008641 0.191797 0.785240
0.186655 0.195905 0.789348
0.446829 0.201909 0.795352
0.707003 0.207913 0.801356
0.885017 0.212021 0.805464
0.029913 0.480759 0.806513
0.207927 0.484867 0.810621
0.468101 0.490871 0.816625
0.728276 0.496875 0.822629
0.906289 0.500983 0.826737
0.051186 0.769722 0.827785
0.229200 0.773830 0.831893
0.489374 0.779834 0.837897
0.749548 0.785838 0.843901
0.927562 0.789946 0.848009
0.065741 0.967433 0.842340
0.243754 0.971541 0.846448
0.503929 0.977545 0.852452
0.764103 0.983549 0.858456
0.942117 0.987657 0.862564
0.000000 0.000000 0.970230
0.173688 0.000000 0.974338
0.433862 0.005786 0.980342
0.694036 0.011790 0.986346
0.872050 0.015898 0.990454
0.010229 0.193385 0.984785
0.188243 0.197493 0.988893
0.448417 0.203497 0.994897
0.708591 0.209501 1.000000
0.886605 0.213609 1.000000
0.031501 0.482347 1.000000
0.209515 0.486455 1.000000
0.469689 0.492459 1.000000
0.729864 0.498464 1.000000
0.907878 0.502572 1.000000
0.052774 0.771310 1.000000
0.230788 0.775418 1.000000
0.490962 0.781422 1.000000
0.751136 0.787426 1.000000
0.929150 0.791534 1.000000
0.067329 0.969021 1.000000
0.245342 0.973129 1.000000
0.505517 0.979133 1.000000
0.765691 0.985137 1.000000
0.943705 0.989245 1.000000
