assets/luts/coolFilm.cube
TITLE "MSA Cool Film"
LUT_3D_SIZE 17
0.000000 0.000000 0.000000
0.020164 0.000000 0.000000
0.061458 0.000000 0.000000
0.110455 0.000000 0.000000
0.165870 0.000000 0.000000
0.226420 0.000000 0.000000
0.290822 0.000000 0.000000
0.357791 0.000000 0.000000
0.426044 0.000000 0.000000
0.494297 0.000000 0.000000
0.561266 0.001089 0.001089
0.625668 0.002575 0.002575
0.686218 0.003972 0.003972
0.741634 0.005251 0.005251
0.790630 0.006382 0.006382
0.831924 0.007335 0.007335
0.864232 0.008080 0.008080
0.000000 0.023739 0.000000
0.022805 0.024484 0.000000
0.064099 0.025437 0.000000
0.113096 0.026568 0.000000
0.168511 0.027847 0.000000
0.229062 0.029244 0.000000
0.293464 0.030730 0.000000
0.360433 0.032276 0.000000
0.428686 0.033851 0.000610
0.496939 0.035426 0.002185
0.563908 0.036971 0.003730
0.628309 0.038457 0.005216
0.688860 0.039855 0.006614
0.744275 0.041134 0.007893
0.793272 0.042264 0.009023
0.834566 0.043217 0.009976
0.866874 0.043963 0.010722
0.000000 0.069602 0.000000
0.026182 0.070347 0.000000
0.067476 0.071300 0.000000
0.116472 0.072431 0.000000
0.171888 0.073710 0.000000
0.232438 0.075107 0.000000
0.296840 0.076593 0.000865
0.363809 0.078139 0.002411
0.432062 0.079714 0.003986
0.500315 0.081289 0.005561
0.567284 0.082835 0.007106
0.631686 0.084321 0.008593
0.692236 0.085718 0.009990
0.747652 0.086997 0.011269
0.796648 0.088128 0.012400
0.837942 0.089081 0.013352
0.870250 0.089826 0.014098
0.000000 0.124020 0.000000
0.030188 0.124766 0.000000
0.071482 0.125718 0.000000
0.120478 0.126849 0.000709
0.175894 0.128128 0.001988
0.236444 0.129525 0.003385
0.300846 0.131012 0.004872
0.367815 0.132557 0.006417
0.436068 0.134132 0.007992
0.504321 0.135707 0.009567
0.571290 0.137253 0.011113
0.635692 0.138739 0.012599
0.696242 0.140136 0.013996
0.751658 0.141415 0.015275
0.800654 0.142546 0.016406
0.841948 0.143499 0.017359
0.874256 0.144244 0.018104
0.002411 0.185567 0.002411
0.034719 0.186313 0.003156
0.076013 0.187266 0.004109
0.125009 0.188396 0.005240
0.180425 0.189675 0.006519
0.240975 0.191072 0.007916
0.305377 0.192559 0.009402
0.372346 0.194104 0.010948
0.440599 0.195679 0.012523
0.508852 0.197254 0.014098
0.575821 0.198800 0.015643
0.640223 0.200286 0.017130
0.700773 0.201683 0.018527
0.756188 0.202962 0.019806
0.805185 0.204093 0.020937
0.846479 0.205046 0.021889
0.878787 0.205791 0.022635
0.007362 0.252817 0.007362
0.039669 0.253563 0.008107
0.080963 0.254516 0.009060
0.129960 0.255646 0.010191
0.185375 0.256925 0.011470
0.245926 0.258323 0.012867
0.310328 0.259809 0.014353
0.377297 0.261354 0.015899
0.445550 0.262929 0.017474
0.513803 0.264504 0.019049
0.580772 0.266050 0.020594
0.645173 0.267536 0.022080
0.705724 0.268933 0.023478
0.761139 0.270212 0.024757
0.810136 0.271343 0.025887
0.851430 0.272296 0.026840
0.883738 0.273041 0.027586
0.012627 0.324345 0.012627
0.044935 0.325090 0.013373
0.086229 0.326043 0.014326
0.135226 0.327174 0.015456
0.190641 0.328453 0.016735
0.251191 0.329850 0.018133
0.315593 0.331336 0.019619
0.382562 0.332882 0.021164
0.450815 0.334457 0.022739
0.519068 0.336032 0.024314
0.586037 0.337578 0.025860
0.650439 0.339064 0.027346
0.710989 0.340461 0.028743
0.766405 0.341740 0.030022
0.815401 0.342871 0.031153
0.856696 0.343824 0.032106
0.889003 0.344569 0.032851
0.018103 0.398724 0.018103
0.050411 0.399470 0.018848
0.091705 0.400423 0.019801
0.140701 0.401553 0.020932
0.196117 0.402832 0.022211
0.256667 0.404230 0.023608
0.321069 0.405716 0.025094
0.388038 0.407261 0.026640
0.456291 0.408836 0.028215
0.524544 0.410411 0.029790
0.591513 0.411957 0.031335
0.655915 0.413443 0.032822
0.716465 0.414840 0.034219
0.771880 0.416119 0.035498
0.820877 0.417250 0.036628
0.862171 0.418203 0.037581
0.894479 0.418948 0.038327
0.023683 0.474529 0.023683
0.055991 0.475275 0.024429
0.097285 0.476228 0.025382
0.146282 0.477358 0.026512
0.201697 0.478637 0.027791
0.262248 0.480035 0.029189
0.326649 0.481521 0.030675
0.393618 0.483066 0.032220
0.461871 0.484641 0.033795
0.530124 0.486216 0.035370
0.597093 0.487762 0.036916
0.661495 0.489248 0.038402
0.722046 0.490645 0.039799
0.777461 0.491924 0.041078
0.826458 0.493055 0.042209
0.867752 0.494008 0.043162
0.900059 0.494753 0.043907
0.029264 0.550334 0.029264
0.061572 0.551080 0.030009
0.102866 0.552033 0.030962
0.151862 0.553164 0.032093
0.207278 0.554442 0.033372
0.267828 0.555840 0.034769
0.332230 0.557326 0.036255
0.399199 0.558871 0.037801
0.467452 0.560446 0.039376
0.535705 0.562021 0.040951
0.602674 0.563567 0.042496
0.667076 0.565053 0.043983
0.727626 0.566450 0.045380
0.783041 0.567729 0.046659
0.832038 0.568860 0.047789
0.873332 0.569813 0.048742
0.905640 0.570559 0.049488
0.034739 0.624714 0.034739
0.067047 0.625459 0.035485
0.108341 0.626412 0.036438
0.157338 0.627543 0.037569
0.212753 0.628822 0.038847
0.273304 0.630219 0.040245
0.337705 0.631705 0.041731
0.404674 0.633251 0.043276
0.472927 0.634826 0.044851
0.541180 0.636401 0.046426
0.608150 0.637946 0.047972
0.672551 0.639432 0.049458
0.733102 0.640830 0.050855
0.788517 0.642109 0.052134
0.837514 0.643239 0.053265
0.878808 0.644192 0.054218
0.911116 0.644938 0.054964
0.040005 0.696241 0.040005
0.072313 0.696987 0.040750
0.113607 0.697940 0.041703
0.162603 0.699070 0.042834
0.218019 0.700349 0.044113
0.278569 0.701747 0.045510
0.342971 0.703233 0.046996
0.409940 0.704778 0.048542
0.478193 0.706353 0.050117
0.546446 0.707928 0.051692
0.613415 0.709474 0.053238
0.677817 0.710960 0.054724
0.738367 0.712357 0.056121
0.793783 0.713636 0.057400
0.842779 0.714767 0.058531
0.884073 0.715720 0.059484
0.916381 0.716465 0.060229
0.044956 0.763491 0.044956
0.077263 0.764237 0.045701
0.118558 0.765190 0.046654
0.167554 0.766321 0.047785
0.222970 0.767600 0.049064
0.283520 0.768997 0.050461
0.347922 0.770483 0.051947
0.414891 0.772028 0.053493
0.483144 0.773604 0.055068
0.551397 0.775179 0.056643
0.618366 0.776724 0.058188
0.682768 0.778210 0.059674
0.743318 0.779608 0.061072
0.798733 0.780886 0.062351
0.847730 0.782017 0.063481
0.889024 0.782970 0.064434
0.921332 0.783716 0.065180
0.049487 0.825039 0.049487
0.081794 0.825784 0.050232
0.123088 0.826737 0.051185
0.172085 0.827868 0.052316
0.227500 0.829147 0.053595
0.288051 0.830544 0.054992
0.352453 0.832030 0.056478
0.419422 0.833576 0.058024
0.487675 0.835151 0.059599
0.555928 0.836726 0.061174
0.622897 0.838271 0.062719
0.687298 0.839757 0.064205
0.747849 0.841155 0.065603
0.803264 0.842434 0.066882
0.852261 0.843564 0.068012
0.893555 0.844517 0.068965
0.925863 0.845263 0.069711
0.053493 0.879457 0.053493
0.085800 0.880202 0.054238
0.127095 0.881155 0.055191
0.176091 0.882286 0.056322
0.231507 0.883565 0.057601
0.292057 0.884962 0.058998
0.356459 0.886448 0.060484
0.423428 0.887994 0.062030
0.491681 0.889569 0.063605
0.559934 0.891144 0.065180
0.626903 0.892689 0.066725
0.691304 0.894175 0.068211
0.751855 0.895573 0.069609
0.807270 0.896852 0.070888
0.856267 0.897982 0.072018
0.897561 0.898935 0.072971
0.929869 0.899681 0.073717
0.056869 0.925320 0.056869
0.089177 0.926065 0.057614
0.130471 0.927018 0.058567
0.179467 0.928149 0.059698
0.234883 0.929428 0.060977
0.295433 0.930825 0.062374
0.359835 0.932311 0.063860
0.426804 0.933857 0.065406
0.495057 0.935432 0.066981
0.563310 0.937007 0.068556
0.630279 0.938552 0.070102
0.694681 0.940039 0.071588
0.755231 0.941436 0.072985
0.810647 0.942715 0.074264
0.859643 0.943846 0.075395
0.900937 0.944798 0.076348
0.933245 0.945544 0.077093
0.059510 0.961202 0.059510
0.091818 0.961948 0.060256
0.133112 0.962901 0.061209
0.182109 0.964032 0.062340
0.237524 0.965311 0.063619
0.298075 0.966708 0.065016
0.362476 0.968194 0.066502
0.429446 0.969739 0.068047
0.497699 0.971315 0.069623
0.565951 0.972890 0.071198
0.632921 0.974435 0.072743
0.697322 0.975921 0.074229
0.757873 0.977319 0.075627
0.813288 0.978597 0.076905
0.862285 0.979728 0.078036
0.903579 0.980681 0.078989
0.935887 0.981427 0.079735
0.000000 0.000000 0.024071
0.020452 0.000000 0.024817
0.061746 0.000000 0.025770
0.110743 0.000000 0.026901
0.166158 0.000000 0.028179
0.226709 0.000000 0.029577
0.291110 0.000000 0.031063
0.358079 0.000000 0.032608
0.426332 0.000000 0.034184
0.494585 0.000000 0.035759
0.561554 0.001377 0.037304
0.625956 0.002863 0.038790
0.686507 0.004260 0.040188
0.741922 0.005539 0.041466
0.790919 0.006670 0.042597
0.832213 0.007623 0.043550
0.864520 0.008368 0.044296
0.000000 0.024027 0.026713
0.023094 0.024772 0.027459
0.064388 0.025725 0.028412
0.113384 0.026856 0.029542
0.168800 0.028135 0.030821
0.229350 0.029532 0.032218
0.293752 0.031018 0.033705
0.360721 0.032564 0.035250
0.428974 0.034139 0.036825
0.497227 0.035714 0.038400
0.564196 0.037260 0.039946
0.628598 0.038746 0.041432
0.689148 0.040143 0.042829
0.744563 0.041422 0.044108
0.793560 0.042553 0.045239
0.834854 0.043506 0.046192
0.867162 0.044251 0.046937
0.000000 0.069890 0.030089
0.026470 0.070636 0.030835
0.067764 0.071589 0.031788
0.116761 0.072719 0.032919
0.172176 0.073998 0.034197
0.232726 0.075395 0.035595
0.297128 0.076882 0.037081
0.364097 0.078427 0.038626
0.432350 0.080002 0.040201
0.500603 0.081577 0.041776
0.567572 0.083123 0.043322
0.631974 0.084609 0.044808
0.692524 0.086006 0.046205
0.747940 0.087285 0.047484
0.796936 0.088416 0.048615
0.838230 0.089369 0.049568
0.870538 0.090114 0.050314
0.000000 0.124308 0.034095
0.030476 0.125054 0.034841
0.071770 0.126007 0.035794
0.120767 0.127137 0.036925
0.176182 0.128416 0.038203
0.236732 0.129814 0.039601
0.301134 0.131300 0.041087
0.368103 0.132845 0.042632
0.436356 0.134420 0.044207
0.504609 0.135995 0.045783
0.571578 0.137541 0.047328
0.635980 0.139027 0.048814
0.696530 0.140424 0.050212
0.751946 0.141703 0.051490
0.800942 0.142834 0.052621
0.842237 0.143787 0.053574
0.874544 0.144532 0.054320
0.002699 0.185855 0.038626
0.035007 0.186601 0.039372
0.076301 0.187554 0.040325
0.125298 0.188684 0.041455
0.180713 0.189963 0.042734
0.241263 0.191361 0.044132
0.305665 0.192847 0.045618
0.372634 0.194392 0.047163
0.440887 0.195967 0.048738
0.509140 0.197542 0.050313
0.576109 0.199088 0.051859
0.640511 0.200574 0.053345
0.701061 0.201971 0.054742
0.756477 0.203250 0.056021
0.805473 0.204381 0.057152
0.846767 0.205334 0.058105
0.879075 0.206079 0.058850
0.007650 0.253105 0.043577
0.039958 0.253851 0.044323
0.081252 0.254804 0.045276
0.130248 0.255935 0.046406
0.185664 0.257214 0.047685
0.246214 0.258611 0.049082
0.310616 0.260097 0.050569
0.377585 0.261642 0.052114
0.445838 0.263218 0.053689
0.514091 0.264793 0.055264
0.581060 0.266338 0.056810
0.645462 0.267824 0.058296
0.706012 0.269222 0.059693
0.761427 0.270500 0.060972
0.810424 0.271631 0.062103
0.851718 0.272584 0.063056
0.884026 0.273330 0.063801
0.012915 0.324633 0.048843
0.045223 0.325379 0.049588
0.086517 0.326332 0.050541
0.135514 0.327462 0.051672
0.190929 0.328741 0.052951
0.251480 0.330138 0.054348
0.315881 0.331625 0.055834
0.382851 0.333170 0.057380
0.451103 0.334745 0.058955
0.519356 0.336320 0.060530
0.586326 0.337866 0.062075
0.650727 0.339352 0.063561
0.711278 0.340749 0.064959
0.766693 0.342028 0.066238
0.815690 0.343159 0.067368
0.856984 0.344112 0.068321
0.889292 0.344857 0.069067
0.018391 0.399012 0.054318
0.050699 0.399758 0.055064
0.091993 0.400711 0.056017
0.140989 0.401842 0.057147
0.196405 0.403120 0.058426
0.256955 0.404518 0.059824
0.321357 0.406004 0.061310
0.388326 0.407549 0.062855
0.456579 0.409124 0.064430
0.524832 0.410700 0.066005
0.591801 0.412245 0.067551
0.656203 0.413731 0.069037
0.716753 0.415129 0.070434
0.772169 0.416407 0.071713
0.821165 0.417538 0.072844
0.862459 0.418491 0.073797
0.894767 0.419237 0.074542
0.023971 0.474817 0.059899
0.056279 0.475563 0.060644
0.097573 0.476516 0.061597
0.146570 0.477647 0.062728
0.201985 0.478925 0.064007
0.262536 0.480323 0.065404
0.326937 0.481809 0.066890
0.393907 0.483354 0.068436
0.462160 0.484930 0.070011
0.530412 0.486505 0.071586
0.597382 0.488050 0.073131
0.661783 0.489536 0.074618
0.722334 0.490934 0.076015
0.777749 0.492212 0.077294
0.826746 0.493343 0.078424
0.868040 0.494296 0.079377
0.900348 0.495042 0.080123
0.029552 0.550623 0.065479
0.061860 0.551368 0.066225
0.103154 0.552321 0.067178
0.152150 0.553452 0.068308
0.207566 0.554731 0.069587
0.268116 0.556128 0.070985
0.332518 0.557614 0.072471
0.399487 0.559160 0.074016
0.467740 0.560735 0.075591
0.535993 0.562310 0.077166
0.602962 0.563855 0.078712
0.667364 0.565341 0.080198
0.727914 0.566739 0.081595
0.783330 0.568017 0.082874
0.832326 0.569148 0.084005
0.873620 0.570101 0.084958
0.905928 0.570847 0.085703
0.035028 0.625002 0.070955
0.067335 0.625747 0.071700
0.108629 0.626700 0.072653
0.157626 0.627831 0.073784
0.213041 0.629110 0.075063
0.273592 0.630507 0.076460
0.337993 0.631993 0.077946
0.404963 0.633539 0.079492
0.473216 0.635114 0.081067
0.541469 0.636689 0.082642
0.608438 0.638234 0.084187
0.672839 0.639721 0.085674
0.733390 0.641118 0.087071
0.788805 0.642397 0.088350
0.837802 0.643527 0.089480
0.879096 0.644480 0.090433
0.911404 0.645226 0.091179
0.040293 0.696529 0.076220
0.072601 0.697275 0.076966
0.113895 0.698228 0.077919
0.162892 0.699359 0.079050
0.218307 0.700637 0.080328
0.278857 0.702035 0.081726
0.343259 0.703521 0.083212
0.410228 0.705066 0.084757
0.478481 0.706642 0.086332
0.546734 0.708217 0.087908
0.613703 0.709762 0.089453
0.678105 0.711248 0.090939
0.738655 0.712646 0.092337
0.794071 0.713924 0.093615
0.843067 0.715055 0.094746
0.884362 0.716008 0.095699
0.916669 0.716754 0.096445
0.045244 0.763780 0.081171
0.077552 0.764525 0.081917
0.118846 0.765478 0.082870
0.167842 0.766609 0.084000
0.223258 0.767888 0.085279
0.283808 0.769285 0.086676
0.348210 0.770771 0.088163
0.415179 0.772317 0.089708
0.483432 0.773892 0.091283
0.551685 0.775467 0.092858
0.618654 0.777012 0.094404
0.683056 0.778499 0.095890
0.743606 0.779896 0.097287
0.799022 0.781175 0.098566
0.848018 0.782305 0.099697
0.889312 0.783258 0.100650
0.921620 0.784004 0.101395
0.049775 0.825327 0.085702
0.082083 0.826072 0.086448
0.123377 0.827025 0.087401
0.172373 0.828156 0.088531
0.227789 0.829435 0.089810
0.288339 0.830832 0.091207
0.352741 0.832318 0.092694
0.419710 0.833864 0.094239
0.487963 0.835439 0.095814
0.556216 0.837014 0.097389
0.623185 0.838559 0.098935
0.687587 0.840046 0.100421
0.748137 0.841443 0.101818
0.803552 0.842722 0.103097
0.852549 0.843852 0.104228
0.893843 0.844805 0.105181
0.926151 0.845551 0.105926
0.053781 0.879745 0.089708
0.086089 0.880490 0.090454
0.127383 0.881443 0.091407
0.176379 0.882574 0.092537
0.231795 0.883853 0.093816
0.292345 0.885250 0.095213
0.356747 0.886736 0.096700
0.423716 0.888282 0.098245
0.491969 0.889857 0.099820
0.560222 0.891432 0.101395
0.627191 0.892977 0.102941
0.691593 0.894464 0.104427
0.752143 0.895861 0.105824
0.807559 0.897140 0.107103
0.856555 0.898270 0.108234
0.897849 0.899223 0.109187
0.930157 0.899969 0.109932
0.057157 0.925608 0.093084
0.089465 0.926354 0.093830
0.130759 0.927307 0.094783
0.179756 0.928437 0.095914
0.235171 0.929716 0.097192
0.295721 0.931113 0.098590
0.360123 0.932600 0.100076
0.427092 0.934145 0.101621
0.495345 0.935720 0.103196
0.563598 0.937295 0.104772
0.630567 0.938841 0.106317
0.694969 0.940327 0.107803
0.755519 0.941724 0.109201
0.810935 0.943003 0.110479
0.859931 0.944134 0.111610
0.901226 0.945087 0.112563
0.933533 0.945832 0.113309
0.059799 0.961491 0.095726
0.092106 0.962236 0.096471
0.133401 0.963189 0.097424
0.182397 0.964320 0.098555
0.237813 0.965599 0.099834
0.298363 0.966996 0.101231
0.362765 0.968482 0.102717
0.429734 0.970028 0.104263
0.497987 0.971603 0.105838
0.566240 0.973178 0.107413
0.633209 0.974723 0.108959
0.697611 0.976210 0.110445
0.758161 0.977607 0.111842
0.813576 0.978886 0.113121
0.862573 0.980016 0.114252
0.903867 0.980969 0.115205
0.936175 0.981715 0.115950
0.000000 0.000000 0.070360
0.020820 0.000000 0.071106
0.062115 0.000000 0.072059
0.111111 0.000000 0.073189
0.166527 0.000000 0.074468
0.227077 0.000000 0.075865
0.291479 0.000000 0.077352
0.358448 0.000000 0.078897
0.426701 0.000000 0.080472
0.494954 0.000200 0.082047
0.561923 0.001745 0.083593
0.626324 0.003231 0.085079
0.686875 0.004629 0.086476
0.742290 0.005908 0.087755
0.791287 0.007038 0.088886
0.832581 0.007991 0.089839
0.864889 0.008737 0.090584
0.000000 0.024395 0.073002
0.023462 0.025141 0.073747
0.064756 0.026094 0.074700
0.113753 0.027224 0.075831
0.169168 0.028503 0.077110
0.229718 0.029901 0.078507
0.294120 0.031387 0.079993
0.361089 0.032932 0.081539
0.429342 0.034507 0.083114
0.497595 0.036082 0.084689
0.564564 0.037628 0.086234
0.628966 0.039114 0.087720
0.689516 0.040511 0.089118
0.744932 0.041790 0.090397
0.793928 0.042921 0.091527
0.835223 0.043874 0.092480
0.867530 0.044619 0.093226
0.000000 0.070258 0.076378
0.026838 0.071004 0.077124
0.068132 0.071957 0.078076
0.117129 0.073088 0.079207
0.172544 0.074367 0.080486
0.233095 0.075764 0.081883
0.297496 0.077250 0.083370
0.364466 0.078796 0.084915
0.432719 0.080371 0.086490
0.500971 0.081946 0.088065
0.567941 0.083491 0.089611
0.632342 0.084977 0.091097
0.692893 0.086375 0.092494
0.748308 0.087653 0.093773
0.797305 0.088784 0.094904
0.838599 0.089737 0.095857
0.870907 0.090483 0.096602
0.000000 0.124677 0.080384
0.030844 0.125422 0.081130
0.072138 0.126375 0.082083
0.121135 0.127506 0.083213
0.176550 0.128785 0.084492
0.237101 0.130182 0.085889
0.301503 0.131668 0.087376
0.368472 0.133214 0.088921
0.436725 0.134789 0.090496
0.504978 0.136364 0.092071
0.571947 0.137909 0.093617
0.636348 0.139395 0.095103
0.696899 0.140793 0.096500
0.752314 0.142072 0.097779
0.801311 0.143202 0.098910
0.842605 0.144155 0.099863
0.874913 0.144901 0.100608
0.003067 0.186224 0.084915
0.035375 0.186969 0.085660
0.076669 0.187922 0.086613
0.125666 0.189053 0.087744
0.181081 0.190332 0.089023
0.241632 0.191729 0.090420
0.306033 0.193215 0.091906
0.373003 0.194761 0.093452
0.441256 0.196336 0.095027
0.509508 0.197911 0.096602
0.576478 0.199456 0.098148
0.640879 0.200942 0.099634
0.701430 0.202340 0.101031
0.756845 0.203619 0.102310
0.805842 0.204749 0.103441
0.847136 0.205702 0.104394
0.879444 0.206448 0.105139
0.008018 0.253474 0.089866
0.040326 0.254219 0.090611
0.081620 0.255172 0.091564
0.130617 0.256303 0.092695
0.186032 0.257582 0.093974
0.246582 0.258979 0.095371
0.310984 0.260465 0.096857
0.377953 0.262011 0.098403
0.446206 0.263586 0.099978
0.514459 0.265161 0.101553
0.581428 0.266706 0.103098
0.645830 0.268193 0.104584
0.706380 0.269590 0.105982
0.761796 0.270869 0.107261
0.810792 0.272000 0.108391
0.852087 0.272952 0.109344
0.884394 0.273698 0.110090
0.013284 0.325002 0.095131
0.045592 0.325747 0.095877
0.086886 0.326700 0.096830
0.135882 0.327831 0.097960
0.191298 0.329110 0.099239
0.251848 0.330507 0.100637
0.316250 0.331993 0.102123
0.383219 0.333539 0.103668
0.451472 0.335114 0.105243
0.519725 0.336689 0.106818
0.586694 0.338234 0.108364
0.651096 0.339720 0.109850
0.711646 0.341118 0.111247
0.767061 0.342397 0.112526
0.816058 0.343527 0.113657
0.857352 0.344480 0.114610
0.889660 0.345226 0.115355
0.018759 0.399381 0.100607
0.051067 0.400126 0.101352
0.092361 0.401079 0.102305
0.141358 0.402210 0.103436
0.196773 0.403489 0.104715
0.257324 0.404886 0.106112
0.321725 0.406372 0.107598
0.388694 0.407918 0.109144
0.456947 0.409493 0.110719
0.525200 0.411068 0.112294
0.592170 0.412613 0.113839
0.656571 0.414100 0.115326
0.717122 0.415497 0.116723
0.772537 0.416776 0.118002
0.821534 0.417906 0.119132
0.862828 0.418859 0.120085
0.895136 0.419605 0.120831
0.024340 0.475186 0.106187
0.056648 0.475931 0.106933
0.097942 0.476884 0.107886
0.146938 0.478015 0.109017
0.202354 0.479294 0.110295
0.262904 0.480691 0.111693
0.327306 0.482177 0.113179
0.394275 0.483723 0.114724
0.462528 0.485298 0.116299
0.530781 0.486873 0.117874
0.597750 0.488418 0.119420
0.662152 0.489905 0.120906
0.722702 0.491302 0.122303
0.778118 0.492581 0.123582
0.827114 0.493712 0.124713
0.868408 0.494664 0.125666
0.900716 0.495410 0.126412
0.029920 0.550991 0.111768
0.062228 0.551736 0.112513
0.103522 0.552689 0.113466
0.152519 0.553820 0.114597
0.207934 0.555099 0.115876
0.268485 0.556496 0.117273
0.332886 0.557982 0.118759
0.399856 0.559528 0.120305
0.468108 0.561103 0.121880
0.536361 0.562678 0.123455
0.603331 0.564224 0.125000
0.667732 0.565710 0.126487
0.728283 0.567107 0.127884
0.783698 0.568386 0.129163
0.832695 0.569517 0.130294
0.873989 0.570470 0.131246
0.906297 0.571215 0.131992
0.035396 0.625370 0.117243
0.067704 0.626116 0.117989
0.108998 0.627069 0.118942
0.157994 0.628199 0.120073
0.213410 0.629478 0.121351
0.273960 0.630876 0.122749
0.338362 0.632362 0.124235
0.405331 0.633907 0.125780
0.473584 0.635482 0.127355
0.541837 0.637057 0.128931
0.608806 0.638603 0.130476
0.673208 0.640089 0.131962
0.733758 0.641486 0.133360
0.789174 0.642765 0.134638
0.838170 0.643896 0.135769
0.879464 0.644849 0.136722
0.911772 0.645594 0.137468
0.040662 0.696898 0.122509
0.072969 0.697643 0.123255
0.114263 0.698596 0.124208
0.163260 0.699727 0.125338
0.218675 0.701006 0.126617
0.279226 0.702403 0.128014
0.343628 0.703889 0.129501
0.410597 0.705435 0.131046
0.478850 0.707010 0.132621
0.547103 0.708585 0.134196
0.614072 0.710130 0.135742
0.678473 0.711617 0.137228
0.739024 0.713014 0.138625
0.794439 0.714293 0.139904
0.843436 0.715423 0.141035
0.884730 0.716376 0.141988
0.917038 0.717122 0.142733
0.045612 0.764148 0.127460
0.077920 0.764894 0.128205
0.119214 0.765847 0.129158
0.168211 0.766977 0.130289
0.223626 0.768256 0.131568
0.284177 0.769653 0.132965
0.348578 0.771140 0.134451
0.415547 0.772685 0.135997
0.483800 0.774260 0.137572
0.552053 0.775835 0.139147
0.619022 0.777381 0.140692
0.683424 0.778867 0.142179
0.743975 0.780264 0.143576
0.799390 0.781543 0.144855
0.848387 0.782674 0.145985
0.889681 0.783627 0.146938
0.921988 0.784372 0.147684
0.050143 0.825695 0.131991
0.082451 0.826441 0.132736
0.123745 0.827394 0.133689
0.172742 0.828524 0.134820
0.228157 0.829803 0.136099
0.288707 0.831200 0.137496
0.353109 0.832687 0.138982
0.420078 0.834232 0.140528
0.488331 0.835807 0.142103
0.556584 0.837382 0.143678
0.623553 0.838928 0.145223
0.687955 0.840414 0.146709
0.748505 0.841811 0.148107
0.803921 0.843090 0.149386
0.852917 0.844221 0.150516
0.894212 0.845174 0.151469
0.926519 0.845919 0.152215
0.054149 0.880113 0.135997
0.086457 0.880859 0.136742
0.127751 0.881812 0.137695
0.176748 0.882942 0.138826
0.232163 0.884221 0.140105
0.292714 0.885619 0.141502
0.357115 0.887105 0.142988
0.424084 0.888650 0.144534
0.492337 0.890225 0.146109
0.560590 0.891800 0.147684
0.627559 0.893346 0.149229
0.691961 0.894832 0.150716
0.752511 0.896229 0.152113
0.807927 0.897508 0.153392
0.856924 0.898639 0.154522
0.898218 0.899592 0.155475
0.930525 0.900337 0.156221
0.057525 0.925976 0.139373
0.089833 0.926722 0.140119
0.131127 0.927675 0.141071
0.180124 0.928806 0.142202
0.235539 0.930084 0.143481
0.296090 0.931482 0.144878
0.360491 0.932968 0.146365
0.427461 0.934513 0.147910
0.495714 0.936089 0.149485
0.563967 0.937664 0.151060
0.630936 0.939209 0.152606
0.695337 0.940695 0.154092
0.755888 0.942093 0.155489
0.811303 0.943371 0.156768
0.860300 0.944502 0.157899
0.901594 0.945455 0.158852
0.933902 0.946201 0.159597
0.060167 0.961859 0.142015
0.092475 0.962605 0.142760
0.133769 0.963558 0.143713
0.182766 0.964688 0.144844
0.238181 0.965967 0.146123
0.298731 0.967364 0.147520
0.363133 0.968851 0.149006
0.430102 0.970396 0.150552
0.498355 0.971971 0.152127
0.566608 0.973546 0.153702
0.633577 0.975092 0.155247
0.697979 0.976578 0.156733
0.758529 0.977975 0.158131
0.813945 0.979254 0.159410
0.862941 0.980385 0.160540
0.904235 0.981338 0.161493
0.936543 0.982083 0.162239
0.000000 0.000000 0.125283
0.021258 0.000000 0.126028
0.062552 0.000000 0.126981
0.111548 0.000000 0.128112
0.166964 0.000000 0.129391
0.227514 0.000000 0.130788
0.291916 0.000000 0.132274
0.358885 0.000000 0.133820
0.427138 0.000000 0.135395
0.495391 0.000637 0.136970
0.562360 0.002182 0.138515
0.626762 0.003669 0.140002
0.687312 0.005066 0.141399
0.742727 0.006345 0.142678
0.791724 0.007475 0.143809
0.833018 0.008428 0.144761
0.865326 0.009174 0.145507
0.000000 0.024832 0.127924
0.023899 0.025578 0.128670
0.065193 0.026531 0.129623
