assets/luts/coolFilm.cube
TITLE "MSA Cool Film"
LUT_3D_SIZE 9
0.000000 0.000000 0.000000
0.061458 0.000000 0.000000
0.165870 0.000000 0.000000
0.290822 0.000000 0.000000
0.426044 0.000000 0.000000
0.561266 0.001089 0.001089
0.686218 0.003972 0.003972
0.790630 0.006382 0.006382
0.864232 0.008080 0.008080
0.000000 0.069602 0.000000
0.067476 0.071300 0.000000
0.171888 0.073710 0.000000
0.296840 0.076593 0.000865
0.432062 0.079714 0.003986
0.567284 0.082835 0.007106
0.692236 0.085718 0.009990
0.796648 0.088128 0.012400
0.870250 0.089826 0.014098
0.002411 0.185567 0.002411
0.076013 0.187266 0.004109
0.180425 0.189675 0.006519
0.305377 0.192559 0.009402
0.440599 0.195679 0.012523
0.575821 0.198800 0.015643
0.700773 0.201683 0.018527
0.805185 0.204093 0.020937
0.878787 0.205791 0.022635
0.012627 0.324345 0.012627
0.086229 0.326043 0.014326
0.190641 0.328453 0.016735
0.315593 0.331336 0.019619
0.450815 0.334457 0.022739
0.586037 0.337578 0.025860
0.710989 0.340461 0.028743
0.815401 0.342871 0.031153
0.889003 0.344569 0.032851
0.023683 0.474529 0.023683
0.097285 0.476228 0.025382
0.201697 0.478637 0.027791
0.326649 0.481521 0.030675
0.461871 0.484641 0.033795
0.597093 0.487762 0.036916
0.722046 0.490645 0.039799
0.826458 0.493055 0.042209
0.900059 0.494753 0.043907
0.034739 0.624714 0.034739
0.108341 0.626412 0.036438
0.212753 0.628822 0.038847
0.337705 0.631705 0.041731
0.472927 0.634826 0.044851
0.608150 0.637946 0.047972
0.733102 0.640830 0.050855
0.837514 0.643239 0.053265
0.911116 0.644938 0.054964
0.044956 0.763491 0.044956
0.118558 0.765190 0.046654
0.222970 0.767600 0.049064
0.347922 0.770483 0.051947
0.483144 0.773604 0.055068
0.618366 0.776724 0.058188
0.743318 0.779608 0.061072
0.847730 0.782017 0.063481
0.921332 0.783716 0.065180
0.053493 0.879457 0.053493
0.127095 0.881155 0.055191
0.231507 0.883565 0.057601
0.356459 0.886448 0.060484
0.491681 0.889569 0.063605
0.626903 0.892689 0.066725
0.751855 0.895573 0.069609
0.856267 0.897982 0.072018
0.929869 0.899681 0.073717
0.059510 0.961202 0.059510
0.133112 0.962901 0.061209
0.237524 0.965311 0.063619
0.362476 0.968194 0.066502
0.497699 0.971315 0.069623
0.632921 0.974435 0.072743
0.757873 0.977319 0.075627
0.862285 0.979728 0.078036
0.935887 0.981427 0.079735
0.000000 0.000000 0.070360
0.062115 0.000000 0.072059
0.166527 0.000000 0.074468
0.291479 0.000000 0.077352
0.426701 0.000000 0.080472
0.561923 0.001745 0.083593
0.686875 0.004629 0.086476
0.791287 0.007038 0.088886
0.864889 0.008737 0.090584
0.000000 0.070258 0.076378
0.068132 0.071957 0.078076
0.172544 0.074367 0.080486
0.297496 0.077250 0.083370
0.432719 0.080371 0.086490
0.567941 0.083491 0.089611
0.692893 0.086375 0.092494
0.797305 0.088784 0.094904
0.870907 0.090483 0.096602
0.003067 0.186224 0.084915
0.076669 0.187922 0.086613
0.181081 0.190332 0.089023
0.306033 0.193215 0.091906
0.441256 0.196336 0.095027
0.576478 0.199456 0.098148
0.701430 0.202340 0.101031
0.805842 0.204749 0.103441
0.879444 0.206448 0.105139
0.013284 0.325002 0.095131
0.086886 0.326700 0.096830
0.191298 0.329110 0.099239
0.316250 0.331993 0.102123
0.451472 0.335114 0.105243
0.586694 0.338234 0.108364
0.711646 0.341118 0.111247
0.816058 0.343527 0.113657
0.889660 0.345226 0.115355
0.024340 0.475186 0.106187
0.097942 0.476884 0.107886
0.202354 0.479294 0.110295
0.327306 0.482177 0.113179
0.462528 0.485298 0.116299
0.597750 0.488418 0.119420
0.722702 0.491302 0.122303
0.827114 0.493712 0.124713
0.900716 0.495410 0.126412
0.035396 0.625370 0.117243
0.108998 0.627069 0.118942
0.213410 0.629478 0.121351
0.338362 0.632362 0.124235
0.473584 0.635482 0.127355
0.608806 0.638603 0.130476
0.733758 0.641486 0.133360
0.838170 0.643896 0.135769
0.911772 0.645594 0.137468
0.045612 0.764148 0.127460
0.119214 0.765847 0.129158
0.223626 0.768256 0.131568
0.348578 0.771140 0.134451
0.483800 0.774260 0.137572
0.619022 0.777381 0.140692
0.743975 0.780264 0.143576
0.848387 0.782674 0.145985
0.921988 0.784372 0.147684
0.054149 0.880113 0.135997
0.127751 0.881812 0.137695
0.232163 0.884221 0.140105
0.357115 0.887105 0.142988
0.492337 0.890225 0.146109
0.627559 0.893346 0.149229
0.752511 0.896229 0.152113
0.856924 0.898639 0.154522
0.930525 0.900337 0.156221
0.060167 0.961859 0.142015
0.133769 0.963558 0.143713
0.238181 0.965967 0.146123
0.363133 0.968851 0.149006
0.498355 0.971971 0.152127
0.633577 0.975092 0.155247
0.758529 0.977975 0.158131
0.862941 0.980385 0.160540
0.936543 0.982083 0.162239
0.000000 0.000000 0.187401
0.063046 0.000000 0.189099
0.167458 0.000000 0.191509
0.292410 0.000000 0.194392
0.427632 0.000000 0.197513
0.562854 0.002677 0.200633
0.687806 0.005560 0.203517
0.792218 0.007970 0.205926
0.865820 0.009668 0.207625
0.000000 0.071190 0.193419
0.069064 0.072888 0.195117
0.173476 0.075298 0.197527
0.298428 0.078182 0.200410
0.433650 0.081302 0.203531
0.568872 0.084423 0.206651
0.693824 0.087306 0.209535
0.798236 0.089716 0.211944
0.871838 0.091414 0.213643
0.003999 0.187155 0.201956
0.077601 0.188854 0.203654
0.182013 0.191263 0.206064
0.306965 0.194147 0.208947
0.442187 0.197267 0.212068
0.577409 0.200388 0.215188
0.702361 0.203271 0.218072
0.806773 0.205681 0.220481
0.880375 0.207379 0.222180
0.014215 0.325933 0.212172
0.087817 0.327631 0.213870
0.192229 0.330041 0.216280
0.317181 0.332925 0.219163
0.452403 0.336045 0.222284
0.587625 0.339166 0.225405
0.712578 0.342049 0.228288
0.816990 0.344459 0.230698
0.890591 0.346157 0.232396
0.025271 0.476117 0.223228
0.098873 0.477816 0.224926
0.203285 0.480225 0.227336
0.328237 0.483109 0.230220
0.463459 0.486229 0.233340
0.598681 0.489350 0.236461
0.723634 0.492233 0.239344
0.828046 0.494643 0.241754
0.901647 0.496341 0.243452
0.036327 0.626302 0.234284
0.109929 0.628000 0.235983
0.214341 0.630410 0.238392
0.339293 0.633293 0.241276
0.474515 0.636414 0.244396
0.609738 0.639534 0.247517
0.734690 0.642418 0.250400
0.839102 0.644827 0.252810
0.912704 0.646526 0.254508
0.046544 0.765080 0.244500
0.120146 0.766778 0.246199
0.224558 0.769188 0.248608
0.349510 0.772071 0.251492
0.484732 0.775192 0.254612
0.619954 0.778312 0.257733
0.744906 0.781196 0.260617
0.849318 0.783605 0.263026
0.922920 0.785304 0.264725
0.055081 0.881045 0.253037
0.128683 0.882743 0.254736
0.233095 0.885153 0.257145
0.358047 0.888036 0.260029
0.493269 0.891157 0.263149
0.628491 0.894277 0.266270
0.753443 0.897161 0.269154
0.857855 0.899570 0.271563
0.931457 0.901269 0.273262
0.061099 0.962791 0.259055
0.134700 0.964489 0.260754
0.239112 0.966899 0.263163
0.364065 0.969782 0.266047
0.499287 0.972903 0.269167
0.634509 0.976023 0.272288
0.759461 0.978907 0.275171
0.863873 0.981316 0.277581
0.937475 0.983015 0.279279
0.000000 0.000000 0.327466
0.064161 0.000000 0.329164
0.168573 0.000000 0.331574
0.293525 0.000000 0.334457
0.428747 0.000671 0.337578
0.563969 0.003791 0.340698
0.688921 0.006675 0.343582
0.793333 0.009084 0.345991
0.866935 0.010783 0.347690
0.000000 0.072305 0.333484
0.070179 0.074003 0.335182
0.174591 0.076413 0.337592
0.299543 0.079296 0.340475
0.434765 0.082417 0.343596
0.569987 0.085537 0.346716
0.694939 0.088421 0.349600
0.799351 0.090830 0.352009
0.872953 0.092529 0.353708
0.005114 0.188270 0.342021
0.078715 0.189968 0.343719
0.183127 0.192378 0.346129
0.308080 0.195261 0.349012
0.443302 0.198382 0.352133
0.578524 0.201502 0.355253
0.703476 0.204386 0.358137
0.807888 0.206795 0.360546
0.881490 0.208494 0.362245
0.015330 0.327048 0.352237
0.088932 0.328746 0.353935
0.193344 0.331156 0.356345
0.318296 0.334039 0.359229
0.453518 0.337160 0.362349
0.588740 0.340280 0.365470
0.713692 0.343164 0.368353
0.818104 0.345573 0.370763
0.891706 0.347272 0.372461
0.026386 0.477232 0.363293
0.099988 0.478930 0.364992
0.204400 0.481340 0.367401
0.329352 0.484224 0.370285
0.464574 0.487344 0.373405
0.599796 0.490465 0.376526
0.724748 0.493348 0.379409
0.829160 0.495758 0.381819
0.902762 0.497456 0.383517
0.037442 0.627416 0.374349
0.111044 0.629115 0.376048
0.215456 0.631524 0.378457
0.340408 0.634408 0.381341
0.475630 0.637528 0.384461
0.610852 0.640649 0.387582
0.735804 0.643532 0.390465
0.840216 0.645942 0.392875
0.913818 0.647641 0.394573
0.047658 0.766194 0.384565
0.121260 0.767893 0.386264
0.225672 0.770302 0.388673
0.350624 0.773186 0.391557
0.485846 0.776306 0.394678
0.621069 0.779427 0.397798
0.746021 0.782310 0.400682
0.850433 0.784720 0.403091
0.924035 0.786418 0.404790
0.056195 0.882159 0.393102
0.129797 0.883858 0.394801
0.234209 0.886267 0.397210
0.359161 0.889151 0.400094
0.494383 0.892271 0.403215
0.629606 0.895392 0.406335
0.754558 0.898275 0.409219
0.858970 0.900685 0.411628
0.932572 0.902384 0.413327
0.062213 0.963905 0.399120
0.135815 0.965604 0.400819
0.240227 0.968013 0.403228
0.365179 0.970897 0.406112
0.500401 0.974017 0.409232
0.635623 0.977138 0.412353
0.760575 0.980021 0.415236
0.864988 0.982431 0.417646
0.938589 0.984129 0.419344
0.000000 0.000000 0.479043
0.065367 0.000000 0.480742
0.169779 0.000000 0.483151
0.294731 0.000000 0.486035
0.429953 0.001877 0.489155
0.565175 0.004998 0.492276
0.690127 0.007881 0.495159
0.794539 0.010291 0.497569
0.868141 0.011989 0.499267
0.000000 0.073511 0.485061
0.071385 0.075209 0.486759
0.175797 0.077619 0.489169
0.300749 0.080503 0.492052
0.435971 0.083623 0.495173
0.571193 0.086744 0.498294
0.696145 0.089627 0.501177
0.800557 0.092037 0.503587
0.874159 0.093735 0.505285
0.006320 0.189476 0.493598
0.079922 0.191175 0.495296
0.184334 0.193584 0.497706
0.309286 0.196468 0.500589
0.444508 0.199588 0.503710
0.579730 0.202709 0.506831
0.704682 0.205592 0.509714
0.809094 0.208002 0.512124
0.882696 0.209700 0.513822
0.016536 0.328254 0.503814
0.090138 0.329952 0.505513
0.194550 0.332362 0.507922
0.319502 0.335246 0.510806
0.454724 0.338366 0.513926
0.589946 0.341487 0.517047
0.714899 0.344370 0.519930
0.819311 0.346780 0.522340
0.892912 0.348478 0.524038
0.027592 0.478438 0.514870
0.101194 0.480137 0.516569
0.205606 0.482546 0.518978
0.330558 0.485430 0.521862
0.465780 0.488550 0.524982
0.601002 0.491671 0.528103
0.725955 0.494554 0.530986
0.830367 0.496964 0.533396
0.903968 0.498662 0.535094
0.038648 0.628623 0.525926
0.112250 0.630321 0.527625
0.216662 0.632731 0.530034
0.341614 0.635614 0.532918
0.476836 0.638735 0.536038
0.612059 0.641855 0.539159
0.737011 0.644739 0.542043
0.841423 0.647148 0.544452
0.915025 0.648847 0.546151
0.048865 0.767401 0.536143
0.122467 0.769099 0.537841
0.226879 0.771509 0.540251
0.351831 0.774392 0.543134
0.487053 0.777513 0.546255
0.622275 0.780633 0.549375
0.747227 0.783517 0.552259
0.851639 0.785926 0.554668
0.925241 0.787625 0.556367
0.057402 0.883366 0.544680
0.131004 0.885064 0.546378
0.235416 0.887474 0.548788
0.360368 0.890357 0.551671
0.495590 0.893478 0.554792
0.630812 0.896598 0.557912
0.755764 0.899482 0.560796
0.860176 0.901891 0.563205
0.933778 0.903590 0.564904
0.063420 0.965112 0.550698
0.137021 0.966810 0.552396
0.241433 0.969220 0.554806
0.366386 0.972103 0.557689
0.501608 0.975224 0.560810
0.636830 0.978344 0.563930
0.761782 0.981228 0.566814
0.866194 0.983637 0.569223
0.939796 0.985336 0.570922
0.000000 0.000000 0.630620
0.066573 0.000000 0.632319
0.170985 0.000000 0.634728
0.295937 0.000000 0.637612
0.431159 0.003083 0.640732
0.566382 0.006204 0.643853
0.691334 0.009088 0.646736
0.795746 0.011497 0.649146
0.869348 0.013196 0.650845
0.000000 0.074717 0.636638
0.072591 0.076416 0.638337
0.177003 0.078825 0.640746
0.301955 0.081709 0.643630
0.437177 0.084829 0.646750
0.572399 0.087950 0.649871
0.697352 0.090833 0.652754
0.801764 0.093243 0.655164
0.875365 0.094941 0.656862
0.007526 0.190682 0.645175
0.081128 0.192381 0.646874
0.185540 0.194790 0.649283
0.310492 0.197674 0.652167
0.445714 0.200794 0.655287
0.580936 0.203915 0.658408
0.705888 0.206799 0.661291
0.810300 0.209208 0.663701
0.883902 0.210907 0.665399
0.017743 0.329460 0.655391
0.091344 0.331159 0.657090
0.195756 0.333568 0.659500
0.320709 0.336452 0.662383
0.455931 0.339572 0.665504
0.591153 0.342693 0.668624
0.716105 0.345576 0.671508
0.820517 0.347986 0.673917
0.894119 0.349684 0.675616
0.028799 0.479645 0.666448
0.102400 0.481343 0.668146
0.206813 0.483753 0.670556
0.331765 0.486636 0.673439
0.466987 0.489757 0.676560
0.602209 0.492877 0.679680
0.727161 0.495761 0.682564
0.831573 0.498170 0.684973
0.905175 0.499869 0.686672
0.039855 0.629829 0.677504
0.113457 0.631527 0.679202
0.217869 0.633937 0.681612
0.342821 0.636820 0.684495
0.478043 0.639941 0.687616
0.613265 0.643062 0.690736
0.738217 0.645945 0.693620
0.842629 0.648355 0.696029
0.916231 0.650053 0.697728
0.050071 0.768607 0.687720
0.123673 0.770305 0.689418
0.228085 0.772715 0.691828
0.353037 0.775598 0.694712
0.488259 0.778719 0.697832
0.623481 0.781839 0.700953
0.748433 0.784723 0.703836
0.852845 0.787133 0.706246
0.926447 0.788831 0.707944
0.058608 0.884572 0.696257
0.132210 0.886270 0.697955
0.236622 0.888680 0.700365
0.361574 0.891563 0.703248
0.496796 0.894684 0.706369
0.632018 0.897805 0.709490
0.756970 0.900688 0.712373
0.861382 0.903098 0.714783
0.934984 0.904796 0.716481
0.064626 0.966318 0.702275
0.138228 0.968016 0.703973
0.242640 0.970426 0.706383
0.367592 0.973309 0.709266
0.502814 0.976430 0.712387
0.638036 0.979550 0.715507
0.762988 0.982434 0.718391
0.867400 0.984844 0.720800
0.941002 0.986542 0.722499
0.000000 0.000000 0.770685
0.067688 0.000000 0.772384
0.172100 0.000000 0.774793
0.297052 0.001078 0.777677
0.432274 0.004198 0.780797
0.567496 0.007319 0.783918
0.692448 0.010202 0.786802
0.796860 0.012612 0.789211
0.870462 0.014310 0.790910
0.000104 0.075832 0.776703
0.073706 0.077530 0.778402
0.178118 0.079940 0.780811
0.303070 0.082824 0.783695
0.438292 0.085944 0.786815
0.573514 0.089065 0.789936
0.698466 0.091948 0.792819
0.802878 0.094358 0.795229
0.876480 0.096056 0.796927
0.008641 0.191797 0.785240
0.082243 0.193496 0.786939
0.186655 0.195905 0.789348
0.311607 0.198789 0.792232
0.446829 0.201909 0.795352
0.582051 0.205030 0.798473
0.707003 0.207913 0.801356
0.811415 0.210323 0.803766
0.885017 0.212021 0.805464
0.018857 0.330575 0.795457
0.092459 0.332273 0.797155
0.196871 0.334683 0.799565
0.321823 0.337567 0.802448
0.457045 0.340687 0.805569
0.592267 0.343808 0.808689
0.717220 0.346691 0.811573
0.821632 0.349101 0.813982
0.895233 0.350799 0.815681
0.029913 0.480759 0.806513
0.103515 0.482458 0.808211
0.207927 0.484867 0.810621
0.332879 0.487751 0.813504
0.468101 0.490871 0.816625
0.603323 0.493992 0.819745
0.728276 0.496875 0.822629
0.832688 0.499285 0.825038
0.906289 0.500983 0.826737
0.040969 0.630944 0.817569
0.114571 0.632642 0.819267
0.218983 0.635052 0.821677
0.343935 0.637935 0.824560
0.479157 0.641056 0.827681
0.614380 0.644176 0.830801
0.739332 0.647060 0.833685
0.843744 0.649469 0.836094
0.917346 0.651168 0.837793
0.051186 0.769722 0.827785
0.124788 0.771420 0.829484
0.229200 0.773830 0.831893
0.354152 0.776713 0.834777
0.489374 0.779834 0.837897
0.624596 0.782954 0.841018
0.749548 0.785838 0.843901
0.853960 0.788247 0.846311
0.927562 0.789946 0.848009
0.059723 0.885687 0.836322
0.133325 0.887385 0.838020
0.237737 0.889795 0.840430
0.362689 0.892678 0.843314
0.497911 0.895799 0.846434
0.633133 0.898919 0.849555
0.758085 0.901803 0.852438
0.862497 0.904212 0.854848
0.936099 0.905911 0.856546
0.065741 0.967433 0.842340
0.139342 0.969131 0.844038
0.243754 0.971541 0.846448
0.368707 0.974424 0.849331
0.503929 0.977545 0.852452
0.639151 0.980665 0.855572
0.764103 0.983549 0.858456
0.868515 0.985958 0.860866
0.942117 0.987657 0.862564
0.000000 0.000000 0.887726
0.068619 0.000000 0.889425
0.173031 0.000000 0.891834
0.297984 0.002009 0.894718
0.433206 0.005130 0.897838
0.568428 0.008250 0.900959
0.693380 0.011134 0.903842
0.797792 0.013543 0.906252
0.871394 0.015242 0.907950
0.001035 0.076763 0.893744
0.074637 0.078462 0.895442
0.179049 0.080871 0.897852
0.304001 0.083755 0.900735
0.439223 0.086876 0.903856
0.574446 0.089996 0.906977
0.699398 0.092880 0.909860
0.803810 0.095289 0.912270
0.877412 0.096988 0.913968
0.009572 0.192729 0.902281
0.083174 0.194427 0.903979
0.187586 0.196837 0.906389
0.312538 0.199720 0.909272
0.447760 0.202841 0.912393
0.582983 0.205961 0.915513
0.707935 0.208845 0.918397
0.812347 0.211254 0.920807
0.885949 0.212953 0.922505
0.019789 0.331506 0.912497
0.093391 0.333205 0.914196
0.197803 0.335614 0.916605
0.322755 0.338498 0.919489
0.457977 0.341619 0.922609
0.593199 0.344739 0.925730
0.718151 0.347623 0.928613
0.822563 0.350032 0.931023
0.896165 0.351731 0.932721
0.030845 0.481691 0.923553
0.104447 0.483389 0.925252
0.208859 0.485799 0.927661
0.333811 0.488682 0.930545
0.469033 0.491803 0.933665
0.604255 0.494923 0.936786
0.729207 0.497807 0.939669
0.833619 0.500216 0.942079
0.907221 0.501915 0.943777
0.041901 0.631875 0.934609
0.115503 0.633574 0.936308
0.219915 0.635983 0.938717
0.344867 0.638867 0.941601
0.480089 0.641987 0.944721
0.615311 0.645108 0.947842
0.740263 0.647991 0.950725
0.844675 0.650401 0.953135
0.918277 0.652099 0.954834
0.052117 0.770653 0.944826
0.125719 0.772351 0.946524
0.230131 0.774761 0.948934
0.355083 0.777645 0.951817
0.490305 0.780765 0.954938
0.625527 0.783886 0.958058
0.750479 0.786769 0.960942
0.854891 0.789179 0.963351
0.928493 0.790877 0.965050
0.060654 0.886618 0.953363
0.134256 0.888317 0.955061
0.238668 0.890726 0.957471
0.363620 0.893610 0.960354
0.498842 0.896730 0.963475
0.634064 0.899851 0.966595
0.759016 0.902734 0.969479
0.863428 0.905144 0.971888
0.937030 0.906842 0.973587
0.066672 0.968364 0.959380
0.140274 0.970062 0.961079
0.244686 0.972472 0.963489
0.369638 0.975356 0.966372
0.504860 0.978476 0.969493
0.640082 0.981597 0.972613
0.765034 0.984480 0.975497
0.869446 0.986890 0.977906
0.943048 0.988588 0.979605
0.000000 0.000000 0.970230
0.069276 0.000000 0.971929
0.173688 0.000000 0.974338
0.298640 0.002666 0.977222
0.433862 0.005786 0.980342
0.569084 0.008907 0.983463
0.694036 0.011790 0.986346
0.798448 0.014200 0.988756
0.872050 0.015898 0.990454
0.001692 0.077420 0.976248
0.075294 0.079119 0.977946
0.179706 0.081528 0.980356
0.304658 0.084412 0.983240
0.439880 0.087532 0.986360
0.575102 0.090653 0.989481
0.700054 0.093536 0.992364
0.804466 0.095946 0.994774
0.878068 0.097644 0.996472
0.010229 0.193385 0.984785
0.083831 0.195084 0.986483
0.188243 0.197493 0.988893
0.313195 0.200377 0.991776
0.448417 0.203497 0.994897
0.583639 0.206618 0.998018
0.708591 0.209501 1.000000
0.813003 0.211911 1.000000
0.886605 0.213609 1.000000
0.020445 0.332163 0.995001
0.094047 0.333862 0.996700
0.198459 0.336271 0.999109
0.323411 0.339155 1.000000
0.458633 0.342275 1.000000
0.593855 0.345396 1.000000
0.718808 0.348279 1.000000
0.823220 0.350689 1.000000
0.896821 0.352387 1.000000
0.031501 0.482347 1.000000
0.105103 0.484046 1.000000
0.209515 0.486455 1.000000
0.334467 0.489339 1.000000
0.469689 0.492459 1.000000
0.604912 0.495580 1.000000
0.729864 0.498464 1.000000
0.834276 0.500873 1.000000
0.907878 0.502572 1.000000
0.042557 0.632532 1.000000
0.116159 0.634230 1.000000
0.220571 0.636640 1.000000
0.345523 0.639523 1.000000
0.480745 0.642644 1.000000
0.615968 0.645764 1.000000
0.740920 0.648648 1.000000
0.845332 0.651057 1.000000
0.918934 0.652756 1.000000
0.052774 0.771310 1.000000
0.126376 0.773008 1.000000
0.230788 0.775418 1.000000
0.355740 0.778301 1.000000
0.490962 0.781422 1.000000
0.626184 0.784542 1.000000
0.751136 0.787426 1.000000
0.855548 0.789835 1.000000
0.929150 0.791534 1.000000
0.061311 0.887275 1.000000
0.134913 0.888973 1.000000
0.239325 0.891383 1.000000
0.364277 0.894266 1.000000
0.499499 0.897387 1.000000
0.634721 0.900507 1.000000
0.759673 0.903391 1.000000
0.864085 0.905800 1.000000
0.937687 0.907499 1.000000
0.067329 0.969021 1.000000
0.140930 0.970719 1.000000
0.245342 0.973129 1.000000
0.370295 0.976012 1.000000
0.505517 0.979133 1.000000
0.640739 0.982253 1.000000
0.765691 0.985137 1.000000
0.870103 0.987546 1.000000
0.943705 0.989245 1.000000
