assets/luts/warmFilm.cube
TITLE "MSA Warm Film"
LUT_3D_SIZE 17
0.020000 0.015000 0.010000
0.065812 0.015000 0.010000
0.119004 0.015000 0.010000
0.178523 0.015000 0.010000
0.243312 0.015000 0.010000
0.312319 0.015000 0.010000
0.384489 0.015000 0.010000
0.458767 0.015000 0.010000
0.534100 0.015000 0.010000
0.609433 0.015000 0.010000
0.683711 0.015000 0.010000
0.755881 0.015000 0.010000
0.824888 0.015000 0.010000
0.889677 0.015000 0.010000
0.949196 0.015000 0.010000
1.000000 0.015000 0.010000
1.000000 0.015000 0.010000
0.020000 0.058219 0.010000
0.065812 0.058219 0.010000
0.119004 0.058219 0.010000
0.178523 0.058219 0.010000
0.243312 0.058219 0.010000
0.312319 0.058219 0.010000
0.384489 0.058219 0.010000
0.458767 0.058219 0.010000
0.534100 0.058219 0.010000
0.609433 0.058219 0.010000
0.683711 0.058219 0.010000
0.755881 0.058219 0.010000
0.824888 0.058219 0.010000
0.889677 0.058219 0.010000
0.949196 0.058219 0.010000
1.000000 0.058219 0.010000
1.000000 0.058219 0.010000
0.020000 0.108400 0.010000
0.065812 0.108400 0.010000
0.119004 0.108400 0.010000
0.178523 0.108400 0.010000
0.243312 0.108400 0.010000
0.312319 0.108400 0.010000
0.384489 0.108400 0.010000
0.458767 0.108400 0.010000
0.534100 0.108400 0.010000
0.609433 0.108400 0.010000
0.683711 0.108400 0.010000
0.755881 0.108400 0.010000
0.824888 0.108400 0.010000
0.889677 0.108400 0.010000
0.949196 0.108400 0.010000
1.000000 0.108400 0.010000
1.000000 0.108400 0.010000
0.020000 0.164550 0.010000
0.065812 0.164550 0.010000
0.119004 0.164550 0.010000
0.178523 0.164550 0.010000
0.243312 0.164550 0.010000
0.312319 0.164550 0.010000
0.384489 0.164550 0.010000
0.458767 0.164550 0.010000
0.534100 0.164550 0.010000
0.609433 0.164550 0.010000
0.683711 0.164550 0.010000
0.755881 0.164550 0.010000
0.824888 0.164550 0.010000
0.889677 0.164550 0.010000
0.949196 0.164550 0.010000
1.000000 0.164550 0.010000
1.000000 0.164550 0.010000
0.020000 0.225672 0.010000
0.065812 0.225672 0.010000
0.119004 0.225672 0.010000
0.178523 0.225672 0.010000
0.243312 0.225672 0.010000
0.312319 0.225672 0.010000
0.384489 0.225672 0.010000
0.458767 0.225672 0.010000
0.534100 0.225672 0.010000
0.609433 0.225672 0.010000
0.683711 0.225672 0.010000
0.755881 0.225672 0.010000
0.824888 0.225672 0.010000
0.889677 0.225672 0.010000
0.949196 0.225672 0.010000
1.000000 0.225672 0.010000
1.000000 0.225672 0.010000
0.020000 0.290773 0.010000
0.065812 0.290773 0.010000
0.119004 0.290773 0.010000
0.178523 0.290773 0.010000
0.243312 0.290773 0.010000
0.312319 0.290773 0.010000
0.384489 0.290773 0.010000
0.458767 0.290773 0.010000
0.534100 0.290773 0.010000
0.609433 0.290773 0.010000
0.683711 0.290773 0.010000
0.755881 0.290773 0.010000
0.824888 0.290773 0.010000
0.889677 0.290773 0.010000
0.949196 0.290773 0.010000
1.000000 0.290773 0.010000
1.000000 0.290773 0.010000
0.020000 0.358857 0.010000
0.065812 0.358857 0.010000
0.119004 0.358857 0.010000
0.178523 0.358857 0.010000
0.243312 0.358857 0.010000
0.312319 0.358857 0.010000
0.384489 0.358857 0.010000
0.458767 0.358857 0.010000
0.534100 0.358857 0.010000
0.609433 0.358857 0.010000
0.683711 0.358857 0.010000
0.755881 0.358857 0.010000
0.824888 0.358857 0.010000
0.889677 0.358857 0.010000
0.949196 0.358857 0.010000
1.000000 0.358857 0.010000
1.000000 0.358857 0.010000
0.020000 0.428931 0.010000
0.065812 0.428931 0.010000
0.119004 0.428931 0.010000
0.178523 0.428931 0.010000
0.243312 0.428931 0.010000
0.312319 0.428931 0.010000
0.384489 0.428931 0.010000
0.458767 0.428931 0.010000
0.534100 0.428931 0.010000
0.609433 0.428931 0.010000
0.683711 0.428931 0.010000
0.755881 0.428931 0.010000
0.824888 0.428931 0.010000
0.889677 0.428931 0.010000
0.949196 0.428931 0.010000
1.000000 0.428931 0.010000
1.000000 0.428931 0.010000
0.020000 0.500000 0.010000
0.065812 0.500000 0.010000
0.119004 0.500000 0.010000
0.178523 0.500000 0.010000
0.243312 0.500000 0.010000
0.312319 0.500000 0.010000
0.384489 0.500000 0.010000
0.458767 0.500000 0.010000
0.534100 0.500000 0.010000
0.609433 0.500000 0.010000
0.683711 0.500000 0.010000
0.755881 0.500000 0.010000
0.824888 0.500000 0.010000
0.889677 0.500000 0.010000
0.949196 0.500000 0.010000
1.000000 0.500000 0.010000
1.000000 0.500000 0.010000
0.020000 0.571069 0.010000
0.065812 0.571069 0.010000
0.119004 0.571069 0.010000
0.178523 0.571069 0.010000
0.243312 0.571069 0.010000
0.312319 0.571069 0.010000
0.384489 0.571069 0.010000
0.458767 0.571069 0.010000
0.534100 0.571069 0.010000
0.609433 0.571069 0.010000
0.683711 0.571069 0.010000
0.755881 0.571069 0.010000
0.824888 0.571069 0.010000
0.889677 0.571069 0.010000
0.949196 0.571069 0.010000
1.000000 0.571069 0.010000
1.000000 0.571069 0.010000
0.020000 0.641143 0.010000
0.065812 0.641143 0.010000
0.119004 0.641143 0.010000
0.178523 0.641143 0.010000
0.243312 0.641143 0.010000
0.312319 0.641143 0.010000
0.384489 0.641143 0.010000
0.458767 0.641143 0.010000
0.534100 0.641143 0.010000
0.609433 0.641143 0.010000
0.683711 0.641143 0.010000
0.755881 0.641143 0.010000
0.824888 0.641143 0.010000
0.889677 0.641143 0.010000
0.949196 0.641143 0.010000
1.000000 0.641143 0.010000
1.000000 0.641143 0.010000
0.020000 0.709227 0.010000
0.065812 0.709227 0.010000
0.119004 0.709227 0.010000
0.178523 0.709227 0.010000
0.243312 0.709227 0.010000
0.312319 0.709227 0.010000
0.384489 0.709227 0.010000
0.458767 0.709227 0.010000
0.534100 0.709227 0.010000
0.609433 0.709227 0.010000
0.683711 0.709227 0.010000
0.755881 0.709227 0.010000
0.824888 0.709227 0.010000
0.889677 0.709227 0.010000
0.949196 0.709227 0.010000
1.000000 0.709227 0.010000
1.000000 0.709227 0.010000
0.020000 0.774328 0.010000
0.065812 0.774328 0.010000
0.119004 0.774328 0.010000
0.178523 0.774328 0.010000
0.243312 0.774328 0.010000
0.312319 0.774328 0.010000
0.384489 0.774328 0.010000
0.458767 0.774328 0.010000
0.534100 0.774328 0.010000
0.609433 0.774328 0.010000
0.683711 0.774328 0.010000
0.755881 0.774328 0.010000
0.824888 0.774328 0.010000
0.889677 0.774328 0.010000
0.949196 0.774328 0.010000
1.000000 0.774328 0.010000
1.000000 0.774328 0.010000
0.020000 0.835450 0.010000
0.065812 0.835450 0.010000
0.119004 0.835450 0.010000
0.178523 0.835450 0.010000
0.243312 0.835450 0.010000
0.312319 0.835450 0.010000
0.384489 0.835450 0.010000
0.458767 0.835450 0.010000
0.534100 0.835450 0.010000
0.609433 0.835450 0.010000
0.683711 0.835450 0.010000
0.755881 0.835450 0.010000
0.824888 0.835450 0.010000
0.889677 0.835450 0.010000
0.949196 0.835450 0.010000
1.000000 0.835450 0.010000
1.000000 0.835450 0.010000
0.020000 0.891600 0.010000
0.065812 0.891600 0.010000
0.119004 0.891600 0.010000
0.178523 0.891600 0.010000
0.243312 0.891600 0.010000
0.312319 0.891600 0.010000
0.384489 0.891600 0.010000
0.458767 0.891600 0.010000
0.534100 0.891600 0.010000
0.609433 0.891600 0.010000
0.683711 0.891600 0.010000
0.755881 0.891600 0.010000
0.824888 0.891600 0.010000
0.889677 0.891600 0.010000
0.949196 0.891600 0.010000
1.000000 0.891600 0.010000
1.000000 0.891600 0.010000
0.020000 0.941781 0.010000
0.065812 0.941781 0.010000
0.119004 0.941781 0.010000
0.178523 0.941781 0.010000
0.243312 0.941781 0.010000
0.312319 0.941781 0.010000
0.384489 0.941781 0.010000
0.458767 0.941781 0.010000
0.534100 0.941781 0.010000
0.609433 0.941781 0.010000
0.683711 0.941781 0.010000
0.755881 0.941781 0.010000
0.824888 0.941781 0.010000
0.889677 0.941781 0.010000
0.949196 0.941781 0.010000
1.000000 0.941781 0.010000
1.000000 0.941781 0.010000
0.020000 0.985000 0.010000
0.065812 0.985000 0.010000
0.119004 0.985000 0.010000
0.178523 0.985000 0.010000
0.243312 0.985000 0.010000
0.312319 0.985000 0.010000
0.384489 0.985000 0.010000
0.458767 0.985000 0.010000
0.534100 0.985000 0.010000
0.609433 0.985000 0.010000
0.683711 0.985000 0.010000
0.755881 0.985000 0.010000
0.824888 0.985000 0.010000
0.889677 0.985000 0.010000
0.949196 0.985000 0.010000
1.000000 0.985000 0.010000
1.000000 0.985000 0.010000
0.020000 0.015000 0.050194
0.065812 0.015000 0.050194
0.119004 0.015000 0.050194
0.178523 0.015000 0.050194
0.243312 0.015000 0.050194
0.312319 0.015000 0.050194
0.384489 0.015000 0.050194
0.458767 0.015000 0.050194
0.534100 0.015000 0.050194
0.609433 0.015000 0.050194
0.683711 0.015000 0.050194
0.755881 0.015000 0.050194
0.824888 0.015000 0.050194
0.889677 0.015000 0.050194
0.949196 0.015000 0.050194
1.000000 0.015000 0.050194
1.000000 0.015000 0.050194
0.020000 0.058219 0.050194
0.065812 0.058219 0.050194
0.119004 0.058219 0.050194
0.178523 0.058219 0.050194
0.243312 0.058219 0.050194
0.312319 0.058219 0.050194
0.384489 0.058219 0.050194
0.458767 0.058219 0.050194
0.534100 0.058219 0.050194
0.609433 0.058219 0.050194
0.683711 0.058219 0.050194
0.755881 0.058219 0.050194
0.824888 0.058219 0.050194
0.889677 0.058219 0.050194
0.949196 0.058219 0.050194
1.000000 0.058219 0.050194
1.000000 0.058219 0.050194
0.020000 0.108400 0.050194
0.065812 0.108400 0.050194
0.119004 0.108400 0.050194
0.178523 0.108400 0.050194
0.243312 0.108400 0.050194
0.312319 0.108400 0.050194
0.384489 0.108400 0.050194
0.458767 0.108400 0.050194
0.534100 0.108400 0.050194
0.609433 0.108400 0.050194
0.683711 0.108400 0.050194
0.755881 0.108400 0.050194
0.824888 0.108400 0.050194
0.889677 0.108400 0.050194
0.949196 0.108400 0.050194
1.000000 0.108400 0.050194
1.000000 0.108400 0.050194
0.020000 0.164550 0.050194
0.065812 0.164550 0.050194
0.119004 0.164550 0.050194
0.178523 0.164550 0.050194
0.243312 0.164550 0.050194
0.312319 0.164550 0.050194
0.384489 0.164550 0.050194
0.458767 0.164550 0.050194
0.534100 0.164550 0.050194
0.609433 0.164550 0.050194
0.683711 0.164550 0.050194
0.755881 0.164550 0.050194
0.824888 0.164550 0.050194
0.889677 0.164550 0.050194
0.949196 0.164550 0.050194
1.000000 0.164550 0.050194
1.000000 0.164550 0.050194
0.020000 0.225672 0.050194
0.065812 0.225672 0.050194
0.119004 0.225672 0.050194
0.178523 0.225672 0.050194
0.243312 0.225672 0.050194
0.312319 0.225672 0.050194
0.384489 0.225672 0.050194
0.458767 0.225672 0.050194
0.534100 0.225672 0.050194
0.609433 0.225672 0.050194
0.683711 0.225672 0.050194
0.755881 0.225672 0.050194
0.824888 0.225672 0.050194
0.889677 0.225672 0.050194
0.949196 0.225672 0.050194
1.000000 0.225672 0.050194
1.000000 0.225672 0.050194
0.020000 0.290773 0.050194
0.065812 0.290773 0.050194
0.119004 0.290773 0.050194
0.178523 0.290773 0.050194
0.243312 0.290773 0.050194
0.312319 0.290773 0.050194
0.384489 0.290773 0.050194
0.458767 0.290773 0.050194
0.534100 0.290773 0.050194
0.609433 0.290773 0.050194
0.683711 0.290773 0.050194
0.755881 0.290773 0.050194
0.824888 0.290773 0.050194
0.889677 0.290773 0.050194
0.949196 0.290773 0.050194
1.000000 0.290773 0.050194
1.000000 0.290773 0.050194
0.020000 0.358857 0.050194
0.065812 0.358857 0.050194
0.119004 0.358857 0.050194
0.178523 0.358857 0.050194
0.243312 0.358857 0.050194
0.312319 0.358857 0.050194
0.384489 0.358857 0.050194
0.458767 0.358857 0.050194
0.534100 0.358857 0.050194
0.609433 0.358857 0.050194
0.683711 0.358857 0.050194
0.755881 0.358857 0.050194
0.824888 0.358857 0.050194
0.889677 0.358857 0.050194
0.949196 0.358857 0.050194
1.000000 0.358857 0.050194
1.000000 0.358857 0.050194
0.020000 0.428931 0.050194
0.065812 0.428931 0.050194
0.119004 0.428931 0.050194
0.178523 0.428931 0.050194
0.243312 0.428931 0.050194
0.312319 0.428931 0.050194
0.384489 0.428931 0.050194
0.458767 0.428931 0.050194
0.534100 0.428931 0.050194
0.609433 0.428931 0.050194
0.683711 0.428931 0.050194
0.755881 0.428931 0.050194
0.824888 0.428931 0.050194
0.889677 0.428931 0.050194
0.949196 0.428931 0.050194
1.000000 0.428931 0.050194
1.000000 0.428931 0.050194
0.020000 0.500000 0.050194
0.065812 0.500000 0.050194
0.119004 0.500000 0.050194
0.178523 0.500000 0.050194
0.243312 0.500000 0.050194
0.312319 0.500000 0.050194
0.384489 0.500000 0.050194
0.458767 0.500000 0.050194
0.534100 0.500000 0.050194
0.609433 0.500000 0.050194
0.683711 0.500000 0.050194
0.755881 0.500000 0.050194
0.824888 0.500000 0.050194
0.889677 0.500000 0.050194
0.949196 0.500000 0.050194
1.000000 0.500000 0.050194
1.000000 0.500000 0.050194
0.020000 0.571069 0.050194
0.065812 0.571069 0.050194
0.119004 0.571069 0.050194
0.178523 0.571069 0.050194
0.243312 0.571069 0.050194
0.312319 0.571069 0.050194
0.384489 0.571069 0.050194
0.458767 0.571069 0.050194
0.534100 0.571069 0.050194
0.609433 0.571069 0.050194
0.683711 0.571069 0.050194
0.755881 0.571069 0.050194
0.824888 0.571069 0.050194
0.889677 0.571069 0.050194
0.949196 0.571069 0.050194
1.000000 0.571069 0.050194
1.000000 0.571069 0.050194
0.020000 0.641143 0.050194
0.065812 0.641143 0.050194
0.119004 0.641143 0.050194
0.178523 0.641143 0.050194
0.243312 0.641143 0.050194
0.312319 0.641143 0.050194
0.384489 0.641143 0.050194
0.458767 0.641143 0.050194
0.534100 0.641143 0.050194
0.609433 0.641143 0.050194
0.683711 0.641143 0.050194
0.755881 0.641143 0.050194
0.824888 0.641143 0.050194
0.889677 0.641143 0.050194
0.949196 0.641143 0.050194
1.000000 0.641143 0.050194
1.000000 0.641143 0.050194
0.020000 0.709227 0.050194
0.065812 0.709227 0.050194
0.119004 0.709227 0.050194
0.178523 0.709227 0.050194
0.243312 0.709227 0.050194
0.312319 0.709227 0.050194
0.384489 0.709227 0.050194
0.458767 0.709227 0.050194
0.534100 0.709227 0.050194
0.609433 0.709227 0.050194
0.683711 0.709227 0.050194
0.755881 0.709227 0.050194
0.824888 0.709227 0.050194
0.889677 0.709227 0.050194
0.949196 0.709227 0.050194
1.000000 0.709227 0.050194
1.000000 0.709227 0.050194
0.020000 0.774328 0.050194
0.065812 0.774328 0.050194
0.119004 0.774328 0.050194
0.178523 0.774328 0.050194
0.243312 0.774328 0.050194
0.312319 0.774328 0.050194
0.384489 0.774328 0.050194
0.458767 0.774328 0.050194
0.534100 0.774328 0.050194
0.609433 0.774328 0.050194
0.683711 0.774328 0.050194
0.755881 0.774328 0.050194
0.824888 0.774328 0.050194
0.889677 0.774328 0.050194
0.949196 0.774328 0.050194
1.000000 0.774328 0.050194
1.000000 0.774328 0.050194
0.020000 0.835450 0.050194
0.065812 0.835450 0.050194
0.119004 0.835450 0.050194
0.178523 0.835450 0.050194
0.243312 0.835450 0.050194
0.312319 0.835450 0.050194
0.384489 0.835450 0.050194
0.458767 0.835450 0.050194
0.534100 0.835450 0.050194
0.609433 0.835450 0.050194
0.683711 0.835450 0.050194
0.755881 0.835450 0.050194
0.824888 0.835450 0.050194
0.889677 0.835450 0.050194
0.949196 0.835450 0.050194
1.000000 0.835450 0.050194
1.000000 0.835450 0.050194
0.020000 0.891600 0.050194
0.065812 0.891600 0.050194
0.119004 0.891600 0.050194
0.178523 0.891600 0.050194
0.243312 0.891600 0.050194
0.312319 0.891600 0.050194
0.384489 0.891600 0.050194
0.458767 0.891600 0.050194
0.534100 0.891600 0.050194
0.609433 0.891600 0.050194
0.683711 0.891600 0.050194
0.755881 0.891600 0.050194
0.824888 0.891600 0.050194
0.889677 0.891600 0.050194
0.949196 0.891600 0.050194
1.000000 0.891600 0.050194
1.000000 0.891600 0.050194
0.020000 0.941781 0.050194
0.065812 0.941781 0.050194
0.119004 0.941781 0.050194
0.178523 0.941781 0.050194
0.243312 0.941781 0.050194
0.312319 0.941781 0.050194
0.384489 0.941781 0.050194
0.458767 0.941781 0.050194
0.534100 0.941781 0.050194
0.609433 0.941781 0.050194
0.683711 0.941781 0.050194
0.755881 0.941781 0.050194
0.824888 0.941781 0.050194
0.889677 0.941781 0.050194
0.949196 0.941781 0.050194
1.000000 0.941781 0.050194
1.000000 0.941781 0.050194
0.020000 0.985000 0.050194
0.065812 0.985000 0.050194
0.119004 0.985000 0.050194
0.178523 0.985000 0.050194
0.243312 0.985000 0.050194
0.312319 0.985000 0.050194
0.384489 0.985000 0.050194
0.458767 0.985000 0.050194
0.534100 0.985000 0.050194
0.609433 0.985000 0.050194
0.683711 0.985000 0.050194
0.755881 0.985000 0.050194
0.824888 0.985000 0.050194
0.889677 0.985000 0.050194
0.949196 0.985000 0.050194
1.000000 0.985000 0.050194
1.000000 0.985000 0.050194
0.020000 0.015000 0.096862
0.065812 0.015000 0.096862
0.119004 0.015000 0.096862
0.178523 0.015000 0.096862
0.243312 0.015000 0.096862
0.312319 0.015000 0.096862
0.384489 0.015000 0.096862
0.458767 0.015000 0.096862
0.534100 0.015000 0.096862
0.609433 0.015000 0.096862
0.683711 0.015000 0.096862
0.755881 0.015000 0.096862
0.824888 0.015000 0.096862
0.889677 0.015000 0.096862
0.949196 0.015000 0.096862
1.000000 0.015000 0.096862
1.000000 0.015000 0.096862
0.020000 0.058219 0.096862
0.065812 0.058219 0.096862
0.119004 0.058219 0.096862
0.178523 0.058219 0.096862
0.243312 0.058219 0.096862
0.312319 0.058219 0.096862
0.384489 0.058219 0.096862
0.458767 0.058219 0.096862
0.534100 0.058219 0.096862
0.609433 0.058219 0.096862
0.683711 0.058219 0.096862
0.755881 0.058219 0.096862
0.824888 0.058219 0.096862
0.889677 0.058219 0.096862
0.949196 0.058219 0.096862
1.000000 0.058219 0.096862
1.000000 0.058219 0.096862
0.020000 0.108400 0.096862
0.065812 0.108400 0.096862
0.119004 0.108400 0.096862
0.178523 0.108400 0.096862
0.243312 0.108400 0.096862
0.312319 0.108400 0.096862
0.384489 0.108400 0.096862
0.458767 0.108400 0.096862
0.534100 0.108400 0.096862
0.609433 0.108400 0.096862
0.683711 0.108400 0.096862
0.755881 0.108400 0.096862
0.824888 0.108400 0.096862
0.889677 0.108400 0.096862
0.949196 0.108400 0.096862
1.000000 0.108400 0.096862
1.000000 0.108400 0.096862
0.020000 0.164550 0.096862
0.065812 0.164550 0.096862
0.119004 0.164550 0.096862
0.178523 0.164550 0.096862
0.243312 0.164550 0.096862
0.312319 0.164550 0.096862
0.384489 0.164550 0.096862
0.458767 0.164550 0.096862
0.534100 0.164550 0.096862
0.609433 0.164550 0.096862
0.683711 0.164550 0.096862
0.755881 0.164550 0.096862
0.824888 0.164550 0.096862
0.889677 0.164550 0.096862
0.949196 0.164550 0.096862
1.000000 0.164550 0.096862
1.000000 0.164550 0.096862
0.020000 0.225672 0.096862
0.065812 0.225672 0.096862
0.119004 0.225672 0.096862
0.178523 0.225672 0.096862
0.243312 0.225672 0.096862
0.312319 0.225672 0.096862
0.384489 0.225672 0.096862
0.458767 0.225672 0.096862
0.534100 0.225672 0.096862
0.609433 0.225672 0.096862
0.683711 0.225672 0.096862
0.755881 0.225672 0.096862
0.824888 0.225672 0.096862
0.889677 0.225672 0.096862
0.949196 0.225672 0.096862
1.000000 0.225672 0.096862
1.000000 0.225672 0.096862
0.020000 0.290773 0.096862
0.065812 0.290773 0.096862
0.119004 0.290773 0.096862
0.178523 0.290773 0.096862
0.243312 0.290773 0.096862
0.312319 0.290773 0.096862
0.384489 0.290773 0.096862
0.458767 0.290773 0.096862
0.534100 0.290773 0.096862
0.609433 0.290773 0.096862
0.683711 0.290773 0.096862
0.755881 0.290773 0.096862
0.824888 0.290773 0.096862
0.889677 0.290773 0.096862
0.949196 0.290773 0.096862
1.000000 0.290773 0.096862
1.000000 0.290773 0.096862
0.020000 0.358857 0.096862
0.065812 0.358857 0.096862
0.119004 0.358857 0.096862
0.178523 0.358857 0.096862
0.243312 0.358857 0.096862
0.312319 0.358857 0.096862
0.384489 0.358857 0.096862
0.458767 0.358857 0.096862
0.534100 0.358857 0.096862
0.609433 0.358857 0.096862
0.683711 0.358857 0.096862
0.755881 0.358857 0.096862
0.824888 0.358857 0.096862
0.889677 0.358857 0.096862
0.949196 0.358857 0.096862
1.000000 0.358857 0.096862
1.000000 0.358857 0.096862
0.020000 0.428931 0.096862
0.065812 0.428931 0.096862
0.119004 0.428931 0.096862
0.178523 0.428931 0.096862
0.243312 0.428931 0.096862
0.312319 0.428931 0.096862
0.384489 0.428931 0.096862
0.458767 0.428931 0.096862
0.534100 0.428931 0.096862
0.609433 0.428931 0.096862
0.683711 0.428931 0.096862
0.755881 0.428931 0.096862
0.824888 0.428931 0.096862
0.889677 0.428931 0.096862
0.949196 0.428931 0.096862
1.000000 0.428931 0.096862
1.000000 0.428931 0.096862
0.020000 0.500000 0.096862
0.065812 0.500000 0.096862
0.119004 0.500000 0.096862
0.178523 0.500000 0.096862
0.243312 0.500000 0.096862
0.312319 0.500000 0.096862
0.384489 0.500000 0.096862
0.458767 0.500000 0.096862
0.534100 0.500000 0.096862
0.609433 0.500000 0.096862
0.683711 0.500000 0.096862
0.755881 0.500000 0.096862
0.824888 0.500000 0.096862
0.889677 0.500000 0.096862
0.949196 0.500000 0.096862
1.000000 0.500000 0.096862
1.000000 0.500000 0.096862
0.020000 0.571069 0.096862
0.065812 0.571069 0.096862
0.119004 0.571069 0.096862
0.178523 0.571069 0.096862
0.243312 0.571069 0.096862
0.312319 0.571069 0.096862
0.384489 0.571069 0.096862
0.458767 0.571069 0.096862
0.534100 0.571069 0.096862
0.609433 0.571069 0.096862
0.683711 0.571069 0.096862
0.755881 0.571069 0.096862
0.824888 0.571069 0.096862
0.889677 0.571069 0.096862
0.949196 0.571069 0.096862
1.000000 0.571069 0.096862
1.000000 0.571069 0.096862
0.020000 0.641143 0.096862
0.065812 0.641143 0.096862
0.119004 0.641143 0.096862
0.178523 0.641143 0.096862
0.243312 0.641143 0.096862
0.312319 0.641143 0.096862
0.384489 0.641143 0.096862
0.458767 0.641143 0.096862
0.534100 0.641143 0.096862
0.609433 0.641143 0.096862
0.683711 0.641143 0.096862
0.755881 0.641143 0.096862
0.824888 0.641143 0.096862
0.889677 0.641143 0.096862
0.949196 0.641143 0.096862
1.000000 0.641143 0.096862
1.000000 0.641143 0.096862
0.020000 0.709227 0.096862
0.065812 0.709227 0.096862
0.119004 0.709227 0.096862
0.178523 0.709227 0.096862
0.243312 0.709227 0.096862
0.312319 0.709227 0.096862
0.384489 0.709227 0.096862
0.458767 0.709227 0.096862
0.534100 0.709227 0.096862
0.609433 0.709227 0.096862
0.683711 0.709227 0.096862
0.755881 0.709227 0.096862
0.824888 0.709227 0.096862
0.889677 0.709227 0.096862
0.949196 0.709227 0.096862
1.000000 0.709227 0.096862
1.000000 0.709227 0.096862
0.020000 0.774328 0.096862
0.065812 0.774328 0.096862
0.119004 0.774328 0.096862
0.178523 0.774328 0.096862
0.243312 0.774328 0.096862
0.312319 0.774328 0.096862
0.384489 0.774328 0.096862
0.458767 0.774328 0.096862
0.534100 0.774328 0.096862
0.609433 0.774328 0.096862
0.683711 0.774328 0.096862
0.755881 0.774328 0.096862
0.824888 0.774328 0.096862
0.889677 0.774328 0.096862
0.949196 0.774328 0.096862
1.000000 0.774328 0.096862
1.000000 0.774328 0.096862
0.020000 0.835450 0.096862
0.065812 0.835450 0.096862
0.119004 0.835450 0.096862
0.178523 0.835450 0.096862
0.243312 0.835450 0.096862
0.312319 0.835450 0.096862
0.384489 0.835450 0.096862
0.458767 0.835450 0.096862
0.534100 0.835450 0.096862
0.609433 0.835450 0.096862
0.683711 0.835450 0.096862
0.755881 0.835450 0.096862
0.824888 0.835450 0.096862
0.889677 0.835450 0.096862
0.949196 0.835450 0.096862
1.000000 0.835450 0.096862
1.000000 0.835450 0.096862
0.020000 0.891600 0.096862
0.065812 0.891600 0.096862
0.119004 0.891600 0.096862
0.178523 0.891600 0.096862
0.243312 0.891600 0.096862
0.312319 0.891600 0.096862
0.384489 0.891600 0.096862
0.458767 0.891600 0.096862
0.534100 0.891600 0.096862
0.609433 0.891600 0.096862
0.683711 0.891600 0.096862
0.755881 0.891600 0.096862
0.824888 0.891600 0.096862
0.889677 0.891600 0.096862
0.949196 0.891600 0.096862
1.000000 0.891600 0.096862
1.000000 0.891600 0.096862
0.020000 0.941781 0.096862
0.065812 0.941781 0.096862
0.119004 0.941781 0.096862
0.178523 0.941781 0.096862
0.243312 0.941781 0.096862
0.312319 0.941781 0.096862
0.384489 0.941781 0.096862
0.458767 0.941781 0.096862
0.534100 0.941781 0.096862
0.609433 0.941781 0.096862
0.683711 0.941781 0.096862
0.755881 0.941781 0.096862
0.824888 0.941781 0.096862
0.889677 0.941781 0.096862
0.949196 0.941781 0.096862
1.000000 0.941781 0.096862
1.000000 0.941781 0.096862
0.020000 0.985000 0.096862
0.065812 0.985000 0.096862
0.119004 0.985000 0.096862
0.178523 0.985000 0.096862
0.243312 0.985000 0.096862
0.312319 0.985000 0.096862
0.384489 0.985000 0.096862
0.458767 0.985000 0.096862
0.534100 0.985000 0.096862
0.609433 0.985000 0.096862
0.683711 0.985000 0.096862
0.755881 0.985000 0.096862
0.824888 0.985000 0.096862
0.889677 0.985000 0.096862
0.949196 0.985000 0.096862
1.000000 0.985000 0.096862
1.000000 0.985000 0.096862
0.020000 0.015000 0.149081
0.065812 0.015000 0.149081
0.119004 0.015000 0.149081
0.178523 0.015000 0.149081
0.243312 0.015000 0.149081
0.312319 0.015000 0.149081
0.384489 0.015000 0.149081
0.458767 0.015000 0.149081
0.534100 0.015000 0.149081
0.609433 0.015000 0.149081
0.683711 0.015000 0.149081
0.755881 0.015000 0.149081
0.824888 0.015000 0.149081
0.889677 0.015000 0.149081
0.949196 0.015000 0.149081
1.000000 0.015000 0.149081
1.000000 0.015000 0.149081
0.020000 0.058219 0.149081
0.065812 0.058219 0.149081
0.119004 0.058219 0.149081
