assets/luts/warmFilm.cube
TITLE "MSA Warm Film"
LUT_3D_SIZE 5
0.020000 0.015000 0.010000
0.243312 0.015000 0.010000
0.534100 0.015000 0.010000
0.824888 0.015000 0.010000
1.000000 0.015000 0.010000
0.020000 0.225672 0.010000
0.243312 0.225672 0.010000
0.534100 0.225672 0.010000
0.824888 0.225672 0.010000
1.000000 0.225672 0.010000
0.020000 0.500000 0.010000
0.243312 0.500000 0.010000
0.534100 0.500000 0.010000
0.824888 0.500000 0.010000
1.000000 0.500000 0.010000
0.020000 0.774328 0.010000
0.243312 0.774328 0.010000
0.534100 0.774328 0.010000
0.824888 0.774328 0.010000
1.000000 0.774328 0.010000
0.020000 0.985000 0.010000
0.243312 0.985000 0.010000
0.534100 0.985000 0.010000
0.824888 0.985000 0.010000
1.000000 0.985000 0.010000
0.020000 0.015000 0.205925
0.243312 0.015000 0.205925
0.534100 0.015000 0.205925
0.824888 0.015000 0.205925
1.000000 0.015000 0.205925
0.020000 0.225672 0.205925
0.243312 0.225672 0.205925
0.534100 0.225672 0.205925
0.824888 0.225672 0.205925
1.000000 0.225672 0.205925
0.020000 0.500000 0.205925
0.243312 0.500000 0.205925
0.534100 0.500000 0.205925
0.824888 0.500000 0.205925
1.000000 0.500000 0.205925
0.020000 0.774328 0.205925
0.243312 0.774328 0.205925
0.534100 0.774328 0.205925
0.824888 0.774328 0.205925
1.000000 0.774328 0.205925
0.020000 0.985000 0.205925
0.243312 0.985000 0.205925
0.534100 0.985000 0.205925
0.824888 0.985000 0.205925
1.000000 0.985000 0.205925
0.020000 0.015000 0.461050
0.243312 0.015000 0.461050
0.534100 0.015000 0.461050
0.824888 0.015000 0.461050
1.000000 0.015000 0.461050
0.020000 0.225672 0.461050
0.243312 0.225672 0.461050
0.534100 0.225672 0.461050
0.824888 0.225672 0.461050
1.000000 0.225672 0.461050
0.020000 0.500000 0.461050
0.243312 0.500000 0.461050
0.534100 0.500000 0.461050
0.824888 0.500000 0.461050
1.000000 0.500000 0.461050
0.020000 0.774328 0.461050
0.243312 0.774328 0.461050
0.534100 0.774328 0.461050
0.824888 0.774328 0.461050
1.000000 0.774328 0.461050
0.020000 0.985000 0.461050
0.243312 0.985000 0.461050
0.534100 0.985000 0.461050
0.824888 0.985000 0.461050
1.000000 0.985000 0.461050
0.020000 0.015000 0.716175
0.243312 0.015000 0.716175
0.534100 0.015000 0.716175
0.824888 0.015000 0.716175
1.000000 0.015000 0.716175
0.020000 0.225672 0.716175
0.243312 0.225672 0.716175
0.534100 0.225672 0.716175
0.824888 0.225672 0.716175
1.000000 0.225672 0.716175
0.020000 0.500000 0.716175
0.243312 0.500000 0.716175
0.534100 0.500000 0.716175
0.824888 0.500000 0.716175
1.000000 0.500000 0.716175
0.020000 0.774328 0.716175
0.243312 0.774328 0.716175
0.534100 0.774328 0.716175
0.824888 0.774328 0.716175
1.000000 0.774328 0.716175
0.020000 0.985000 0.716175
0.243312 0.985000 0.716175
0.534100 0.985000 0.716175
0.824888 0.985000 0.716175
1.000000 0.985000 0.716175
0.020000 0.015000 0.912100
0.243312 0.015000 0.912100
0.534100 0.015000 0.912100
0.824888 0.015000 0.912100
1.000000 0.015000 0.912100
0.020000 0.225672 0.912100
0.243312 0.225672 0.912100
0.534100 0.225672 0.912100
0.824888 0.225672 0.912100
1.000000 0.225672 0.912100
0.020000 0.500000 0.912100
0.243312 0.500000 0.912100
0.534100 0.500000 0.912100
0.824888 0.500000 0.912100
1.000000 0.500000 0.912100
0.020000 0.774328 0.912100
0.243312 0.774328 0.912100
0.534100 0.774328 0.912100
0.824888 0.774328 0.912100
1.000000 0.774328 0.912100
0.020000 0.985000 0.912100
0.243312 0.985000 0.912100
0.534100 0.985000 0.912100
0.824888 0.985000 0.912100
1.000000 0.985000 0.912100
