assets/luts/warmFilm.cube
TITLE "MSA Warm Film"
LUT_3D_SIZE 9
0.020000 0.015000 0.010000
0.119004 0.015000 0.010000
0.243312 0.015000 0.010000
0.384489 0.015000 0.010000
0.534100 0.015000 0.010000
0.683711 0.015000 0.010000
0.824888 0.015000 0.010000
0.949196 0.015000 0.010000
1.000000 0.015000 0.010000
0.020000 0.108400 0.010000
0.119004 0.108400 0.010000
0.243312 0.108400 0.010000
0.384489 0.108400 0.010000
0.534100 0.108400 0.010000
0.683711 0.108400 0.010000
0.824888 0.108400 0.010000
0.949196 0.108400 0.010000
1.000000 0.108400 0.010000
0.020000 0.225672 0.010000
0.119004 0.225672 0.010000
0.243312 0.225672 0.010000
0.384489 0.225672 0.010000
0.534100 0.225672 0.010000
0.683711 0.225672 0.010000
0.824888 0.225672 0.010000
0.949196 0.225672 0.010000
1.000000 0.225672 0.010000
0.020000 0.358857 0.010000
0.119004 0.358857 0.010000
0.243312 0.358857 0.010000
0.384489 0.358857 0.010000
0.534100 0.358857 0.010000
0.683711 0.358857 0.010000
0.824888 0.358857 0.010000
0.949196 0.358857 0.010000
1.000000 0.358857 0.010000
0.020000 0.500000 0.010000
0.119004 0.500000 0.010000
0.243312 0.500000 0.010000
0.384489 0.500000 0.010000
0.534100 0.500000 0.010000
0.683711 0.500000 0.010000
0.824888 0.500000 0.010000
0.949196 0.500000 0.010000
1.000000 0.500000 0.010000
0.020000 0.641143 0.010000
0.119004 0.641143 0.010000
0.243312 0.641143 0.010000
0.384489 0.641143 0.010000
0.534100 0.641143 0.010000
0.683711 0.641143 0.010000
0.824888 0.641143 0.010000
0.949196 0.641143 0.010000
1.000000 0.641143 0.010000
0.020000 0.774328 0.010000
0.119004 0.774328 0.010000
0.243312 0.774328 0.010000
0.384489 0.774328 0.010000
0.534100 0.774328 0.010000
0.683711 0.774328 0.010000
0.824888 0.774328 0.010000
0.949196 0.774328 0.010000
1.000000 0.774328 0.010000
0.020000 0.891600 0.010000
0.119004 0.891600 0.010000
0.243312 0.891600 0.010000
0.384489 0.891600 0.010000
0.534100 0.891600 0.010000
0.683711 0.891600 0.010000
0.824888 0.891600 0.010000
0.949196 0.891600 0.010000
1.000000 0.891600 0.010000
0.020000 0.985000 0.010000
0.119004 0.985000 0.010000
0.243312 0.985000 0.010000
0.384489 0.985000 0.010000
0.534100 0.985000 0.010000
0.683711 0.985000 0.010000
0.824888 0.985000 0.010000
0.949196 0.985000 0.010000
1.000000 0.985000 0.010000
0.020000 0.015000 0.096862
0.119004 0.015000 0.096862
0.243312 0.015000 0.096862
0.384489 0.015000 0.096862
0.534100 0.015000 0.096862
0.683711 0.015000 0.096862
0.824888 0.015000 0.096862
0.949196 0.015000 0.096862
1.000000 0.015000 0.096862
0.020000 0.108400 0.096862
0.119004 0.108400 0.096862
0.243312 0.108400 0.096862
0.384489 0.108400 0.096862
0.534100 0.108400 0.096862
0.683711 0.108400 0.096862
0.824888 0.108400 0.096862
0.949196 0.108400 0.096862
1.000000 0.108400 0.096862
0.020000 0.225672 0.096862
0.119004 0.225672 0.096862
0.243312 0.225672 0.096862
0.384489 0.225672 0.096862
0.534100 0.225672 0.096862
0.683711 0.225672 0.096862
0.824888 0.225672 0.096862
0.949196 0.225672 0.096862
1.000000 0.225672 0.096862
0.020000 0.358857 0.096862
0.119004 0.358857 0.096862
0.243312 0.358857 0.096862
0.384489 0.358857 0.096862
0.534100 0.358857 0.096862
0.683711 0.358857 0.096862
0.824888 0.358857 0.096862
0.949196 0.358857 0.096862
1.000000 0.358857 0.096862
0.020000 0.500000 0.096862
0.119004 0.500000 0.096862
0.243312 0.500000 0.096862
0.384489 0.500000 0.096862
0.534100 0.500000 0.096862
0.683711 0.500000 0.096862
0.824888 0.500000 0.096862
0.949196 0.500000 0.096862
1.000000 0.500000 0.096862
0.020000 0.641143 0.096862
0.119004 0.641143 0.096862
0.243312 0.641143 0.096862
0.384489 0.641143 0.096862
0.534100 0.641143 0.096862
0.683711 0.641143 0.096862
0.824888 0.641143 0.096862
0.949196 0.641143 0.096862
1.000000 0.641143 0.096862
0.020000 0.774328 0.096862
0.119004 0.774328 0.096862
0.243312 0.774328 0.096862
0.384489 0.774328 0.096862
0.534100 0.774328 0.096862
0.683711 0.774328 0.096862
0.824888 0.774328 0.096862
0.949196 0.774328 0.096862
1.000000 0.774328 0.096862
0.020000 0.891600 0.096862
0.119004 0.891600 0.096862
0.243312 0.891600 0.096862
0.384489 0.891600 0.096862
0.534100 0.891600 0.096862
0.683711 0.891600 0.096862
0.824888 0.891600 0.096862
0.949196 0.891600 0.096862
1.000000 0.891600 0.096862
0.020000 0.985000 0.096862
0.119004 0.985000 0.096862
0.243312 0.985000 0.096862
0.384489 0.985000 0.096862
0.534100 0.985000 0.096862
0.683711 0.985000 0.096862
0.824888 0.985000 0.096862
0.949196 0.985000 0.096862
1.000000 0.985000 0.096862
0.020000 0.015000 0.205925
0.119004 0.015000 0.205925
0.243312 0.015000 0.205925
0.384489 0.015000 0.205925
0.534100 0.015000 0.205925
0.683711 0.015000 0.205925
0.824888 0.015000 0.205925
0.949196 0.015000 0.205925
1.000000 0.015000 0.205925
0.020000 0.108400 0.205925
0.119004 0.108400 0.205925
0.243312 0.108400 0.205925
0.384489 0.108400 0.205925
0.534100 0.108400 0.205925
0.683711 0.108400 0.205925
0.824888 0.108400 0.205925
0.949196 0.108400 0.205925
1.000000 0.108400 0.205925
0.020000 0.225672 0.205925
0.119004 0.225672 0.205925
0.243312 0.225672 0.205925
0.384489 0.225672 0.205925
0.534100 0.225672 0.205925
0.683711 0.225672 0.205925
0.824888 0.225672 0.205925
0.949196 0.225672 0.205925
1.000000 0.225672 0.205925
0.020000 0.358857 0.205925
0.119004 0.358857 0.205925
0.243312 0.358857 0.205925
0.384489 0.358857 0.205925
0.534100 0.358857 0.205925
0.683711 0.358857 0.205925
0.824888 0.358857 0.205925
0.949196 0.358857 0.205925
1.000000 0.358857 0.205925
0.020000 0.500000 0.205925
0.119004 0.500000 0.205925
0.243312 0.500000 0.205925
0.384489 0.500000 0.205925
0.534100 0.500000 0.205925
0.683711 0.500000 0.205925
0.824888 0.500000 0.205925
0.949196 0.500000 0.205925
1.000000 0.500000 0.205925
0.020000 0.641143 0.205925
0.119004 0.641143 0.205925
0.243312 0.641143 0.205925
0.384489 0.641143 0.205925
0.534100 0.641143 0.205925
0.683711 0.641143 0.205925
0.824888 0.641143 0.205925
0.949196 0.641143 0.205925
1.000000 0.641143 0.205925
0.020000 0.774328 0.205925
0.119004 0.774328 0.205925
0.243312 0.774328 0.205925
0.384489 0.774328 0.205925
0.534100 0.774328 0.205925
0.683711 0.774328 0.205925
0.824888 0.774328 0.205925
0.949196 0.774328 0.205925
1.000000 0.774328 0.205925
0.020000 0.891600 0.205925
0.119004 0.891600 0.205925
0.243312 0.891600 0.205925
0.384489 0.891600 0.205925
0.534100 0.891600 0.205925
0.683711 0.891600 0.205925
0.824888 0.891600 0.205925
0.949196 0.891600 0.205925
1.000000 0.891600 0.205925
0.020000 0.985000 0.205925
0.119004 0.985000 0.205925
0.243312 0.985000 0.205925
0.384489 0.985000 0.205925
0.534100 0.985000 0.205925
0.683711 0.985000 0.205925
0.824888 0.985000 0.205925
0.949196 0.985000 0.205925
1.000000 0.985000 0.205925
0.020000 0.015000 0.329787
0.119004 0.015000 0.329787
0.243312 0.015000 0.329787
0.384489 0.015000 0.329787
0.534100 0.015000 0.329787
0.683711 0.015000 0.329787
0.824888 0.015000 0.329787
0.949196 0.015000 0.329787
1.000000 0.015000 0.329787
0.020000 0.108400 0.329787
0.119004 0.108400 0.329787
0.243312 0.108400 0.329787
0.384489 0.108400 0.329787
0.534100 0.108400 0.329787
0.683711 0.108400 0.329787
0.824888 0.108400 0.329787
0.949196 0.108400 0.329787
1.000000 0.108400 0.329787
0.020000 0.225672 0.329787
0.119004 0.225672 0.329787
0.243312 0.225672 0.329787
0.384489 0.225672 0.329787
0.534100 0.225672 0.329787
0.683711 0.225672 0.329787
0.824888 0.225672 0.329787
0.949196 0.225672 0.329787
1.000000 0.225672 0.329787
0.020000 0.358857 0.329787
0.119004 0.358857 0.329787
0.243312 0.358857 0.329787
0.384489 0.358857 0.329787
0.534100 0.358857 0.329787
0.683711 0.358857 0.329787
0.824888 0.358857 0.329787
0.949196 0.358857 0.329787
1.000000 0.358857 0.329787
0.020000 0.500000 0.329787
0.119004 0.500000 0.329787
0.243312 0.500000 0.329787
0.384489 0.500000 0.329787
0.534100 0.500000 0.329787
0.683711 0.500000 0.329787
0.824888 0.500000 0.329787
0.949196 0.500000 0.329787
1.000000 0.500000 0.329787
0.020000 0.641143 0.329787
0.119004 0.641143 0.329787
0.243312 0.641143 0.329787
0.384489 0.641143 0.329787
0.534100 0.641143 0.329787
0.683711 0.641143 0.329787
0.824888 0.641143 0.329787
0.949196 0.641143 0.329787
1.000000 0.641143 0.329787
0.020000 0.774328 0.329787
0.119004 0.774328 0.329787
0.243312 0.774328 0.329787
0.384489 0.774328 0.329787
0.534100 0.774328 0.329787
0.683711 0.774328 0.329787
0.824888 0.774328 0.329787
0.949196 0.774328 0.329787
1.000000 0.774328 0.329787
0.020000 0.891600 0.329787
0.119004 0.891600 0.329787
0.243312 0.891600 0.329787
0.384489 0.891600 0.329787
0.534100 0.891600 0.329787
0.683711 0.891600 0.329787
0.824888 0.891600 0.329787
0.949196 0.891600 0.329787
1.000000 0.891600 0.329787
0.020000 0.985000 0.329787
0.119004 0.985000 0.329787
0.243312 0.985000 0.329787
0.384489 0.985000 0.329787
0.534100 0.985000 0.329787
0.683711 0.985000 0.329787
0.824888 0.985000 0.329787
0.949196 0.985000 0.329787
1.000000 0.985000 0.329787
0.020000 0.015000 0.461050
0.119004 0.015000 0.461050
0.243312 0.015000 0.461050
0.384489 0.015000 0.461050
0.534100 0.015000 0.461050
0.683711 0.015000 0.461050
0.824888 0.015000 0.461050
0.949196 0.015000 0.461050
1.000000 0.015000 0.461050
0.020000 0.108400 0.461050
0.119004 0.108400 0.461050
0.243312 0.108400 0.461050
0.384489 0.108400 0.461050
0.534100 0.108400 0.461050
0.683711 0.108400 0.461050
0.824888 0.108400 0.461050
0.949196 0.108400 0.461050
1.000000 0.108400 0.461050
0.020000 0.225672 0.461050
0.119004 0.225672 0.461050
0.243312 0.225672 0.461050
0.384489 0.225672 0.461050
0.534100 0.225672 0.461050
0.683711 0.225672 0.461050
0.824888 0.225672 0.461050
0.949196 0.225672 0.461050
1.000000 0.225672 0.461050
0.020000 0.358857 0.461050
0.119004 0.358857 0.461050
0.243312 0.358857 0.461050
0.384489 0.358857 0.461050
0.534100 0.358857 0.461050
0.683711 0.358857 0.461050
0.824888 0.358857 0.461050
0.949196 0.358857 0.461050
1.000000 0.358857 0.461050
0.020000 0.500000 0.461050
0.119004 0.500000 0.461050
0.243312 0.500000 0.461050
0.384489 0.500000 0.461050
0.534100 0.500000 0.461050
0.683711 0.500000 0.461050
0.824888 0.500000 0.461050
0.949196 0.500000 0.461050
1.000000 0.500000 0.461050
0.020000 0.641143 0.461050
0.119004 0.641143 0.461050
0.243312 0.641143 0.461050
0.384489 0.641143 0.461050
0.534100 0.641143 0.461050
0.683711 0.641143 0.461050
0.824888 0.641143 0.461050
0.949196 0.641143 0.461050
1.000000 0.641143 0.461050
0.020000 0.774328 0.461050
0.119004 0.774328 0.461050
0.243312 0.774328 0.461050
0.384489 0.774328 0.461050
0.534100 0.774328 0.461050
0.683711 0.774328 0.461050
0.824888 0.774328 0.461050
0.949196 0.774328 0.461050
1.000000 0.774328 0.461050
0.020000 0.891600 0.461050
0.119004 0.891600 0.461050
0.243312 0.891600 0.461050
0.384489 0.891600 0.461050
0.534100 0.891600 0.461050
0.683711 0.891600 0.461050
0.824888 0.891600 0.461050
0.949196 0.891600 0.461050
1.000000 0.891600 0.461050
0.020000 0.985000 0.461050
0.119004 0.985000 0.461050
0.243312 0.985000 0.461050
0.384489 0.985000 0.461050
0.534100 0.985000 0.461050
0.683711 0.985000 0.461050
0.824888 0.985000 0.461050
0.949196 0.985000 0.461050
1.000000 0.985000 0.461050
0.020000 0.015000 0.592313
0.119004 0.015000 0.592313
0.243312 0.015000 0.592313
0.384489 0.015000 0.592313
0.534100 0.015000 0.592313
0.683711 0.015000 0.592313
0.824888 0.015000 0.592313
0.949196 0.015000 0.592313
1.000000 0.015000 0.592313
0.020000 0.108400 0.592313
0.119004 0.108400 0.592313
0.243312 0.108400 0.592313
0.384489 0.108400 0.592313
0.534100 0.108400 0.592313
0.683711 0.108400 0.592313
0.824888 0.108400 0.592313
0.949196 0.108400 0.592313
1.000000 0.108400 0.592313
0.020000 0.225672 0.592313
0.119004 0.225672 0.592313
0.243312 0.225672 0.592313
0.384489 0.225672 0.592313
0.534100 0.225672 0.592313
0.683711 0.225672 0.592313
0.824888 0.225672 0.592313
0.949196 0.225672 0.592313
1.000000 0.225672 0.592313
0.020000 0.358857 0.592313
0.119004 0.358857 0.592313
0.243312 0.358857 0.592313
0.384489 0.358857 0.592313
0.534100 0.358857 0.592313
0.683711 0.358857 0.592313
0.824888 0.358857 0.592313
0.949196 0.358857 0.592313
1.000000 0.358857 0.592313
0.020000 0.500000 0.592313
0.119004 0.500000 0.592313
0.243312 0.500000 0.592313
0.384489 0.500000 0.592313
0.534100 0.500000 0.592313
0.683711 0.500000 0.592313
0.824888 0.500000 0.592313
0.949196 0.500000 0.592313
1.000000 0.500000 0.592313
0.020000 0.641143 0.592313
0.119004 0.641143 0.592313
0.243312 0.641143 0.592313
0.384489 0.641143 0.592313
0.534100 0.641143 0.592313
0.683711 0.641143 0.592313
0.824888 0.641143 0.592313
0.949196 0.641143 0.592313
1.000000 0.641143 0.592313
0.020000 0.774328 0.592313
0.119004 0.774328 0.592313
0.243312 0.774328 0.592313
0.384489 0.774328 0.592313
0.534100 0.774328 0.592313
0.683711 0.774328 0.592313
0.824888 0.774328 0.592313
0.949196 0.774328 0.592313
1.000000 0.774328 0.592313
0.020000 0.891600 0.592313
0.119004 0.891600 0.592313
0.243312 0.891600 0.592313
0.384489 0.891600 0.592313
0.534100 0.891600 0.592313
0.683711 0.891600 0.592313
0.824888 0.891600 0.592313
0.949196 0.891600 0.592313
1.000000 0.891600 0.592313
0.020000 0.985000 0.592313
0.119004 0.985000 0.592313
0.243312 0.985000 0.592313
0.384489 0.985000 0.592313
0.534100 0.985000 0.592313
0.683711 0.985000 0.592313
0.824888 0.985000 0.592313
0.949196 0.985000 0.592313
1.000000 0.985000 0.592313
0.020000 0.015000 0.716175
0.119004 0.015000 0.716175
0.243312 0.015000 0.716175
0.384489 0.015000 0.716175
0.534100 0.015000 0.716175
0.683711 0.015000 0.716175
0.824888 0.015000 0.716175
0.949196 0.015000 0.716175
1.000000 0.015000 0.716175
0.020000 0.108400 0.716175
0.119004 0.108400 0.716175
0.243312 0.108400 0.716175
0.384489 0.108400 0.716175
0.534100 0.108400 0.716175
0.683711 0.108400 0.716175
0.824888 0.108400 0.716175
0.949196 0.108400 0.716175
1.000000 0.108400 0.716175
0.020000 0.225672 0.716175
0.119004 0.225672 0.716175
0.243312 0.225672 0.716175
0.384489 0.225672 0.716175
0.534100 0.225672 0.716175
0.683711 0.225672 0.716175
0.824888 0.225672 0.716175
0.949196 0.225672 0.716175
1.000000 0.225672 0.716175
0.020000 0.358857 0.716175
0.119004 0.358857 0.716175
0.243312 0.358857 0.716175
0.384489 0.358857 0.716175
0.534100 0.358857 0.716175
0.683711 0.358857 0.716175
0.824888 0.358857 0.716175
0.949196 0.358857 0.716175
1.000000 0.358857 0.716175
0.020000 0.500000 0.716175
0.119004 0.500000 0.716175
0.243312 0.500000 0.716175
0.384489 0.500000 0.716175
0.534100 0.500000 0.716175
0.683711 0.500000 0.716175
0.824888 0.500000 0.716175
0.949196 0.500000 0.716175
1.000000 0.500000 0.716175
0.020000 0.641143 0.716175
0.119004 0.641143 0.716175
0.243312 0.641143 0.716175
0.384489 0.641143 0.716175
0.534100 0.641143 0.716175
0.683711 0.641143 0.716175
0.824888 0.641143 0.716175
0.949196 0.641143 0.716175
1.000000 0.641143 0.716175
0.020000 0.774328 0.716175
0.119004 0.774328 0.716175
0.243312 0.774328 0.716175
0.384489 0.774328 0.716175
0.534100 0.774328 0.716175
0.683711 0.774328 0.716175
0.824888 0.774328 0.716175
0.949196 0.774328 0.716175
1.000000 0.774328 0.716175
0.020000 0.891600 0.716175
0.119004 0.891600 0.716175
0.243312 0.891600 0.716175
0.384489 0.891600 0.716175
0.534100 0.891600 0.716175
0.683711 0.891600 0.716175
0.824888 0.891600 0.716175
0.949196 0.891600 0.716175
1.000000 0.891600 0.716175
0.020000 0.985000 0.716175
0.119004 0.985000 0.716175
0.243312 0.985000 0.716175
0.384489 0.985000 0.716175
0.534100 0.985000 0.716175
0.683711 0.985000 0.716175
0.824888 0.985000 0.716175
0.949196 0.985000 0.716175
1.000000 0.985000 0.716175
0.020000 0.015000 0.825238
0.119004 0.015000 0.825238
0.243312 0.015000 0.825238
0.384489 0.015000 0.825238
0.534100 0.015000 0.825238
0.683711 0.015000 0.825238
0.824888 0.015000 0.825238
0.949196 0.015000 0.825238
1.000000 0.015000 0.825238
0.020000 0.108400 0.825238
0.119004 0.108400 0.825238
0.243312 0.108400 0.825238
0.384489 0.108400 0.825238
0.534100 0.108400 0.825238
0.683711 0.108400 0.825238
0.824888 0.108400 0.825238
0.949196 0.108400 0.825238
1.000000 0.108400 0.825238
0.020000 0.225672 0.825238
0.119004 0.225672 0.825238
0.243312 0.225672 0.825238
0.384489 0.225672 0.825238
0.534100 0.225672 0.825238
0.683711 0.225672 0.825238
0.824888 0.225672 0.825238
0.949196 0.225672 0.825238
1.000000 0.225672 0.825238
0.020000 0.358857 0.825238
0.119004 0.358857 0.825238
0.243312 0.358857 0.825238
0.384489 0.358857 0.825238
0.534100 0.358857 0.825238
0.683711 0.358857 0.825238
0.824888 0.358857 0.825238
0.949196 0.358857 0.825238
1.000000 0.358857 0.825238
0.020000 0.500000 0.825238
0.119004 0.500000 0.825238
0.243312 0.500000 0.825238
0.384489 0.500000 0.825238
0.534100 0.500000 0.825238
0.683711 0.500000 0.825238
0.824888 0.500000 0.825238
0.949196 0.500000 0.825238
1.000000 0.500000 0.825238
0.020000 0.641143 0.825238
0.119004 0.641143 0.825238
0.243312 0.641143 0.825238
0.384489 0.641143 0.825238
0.534100 0.641143 0.825238
0.683711 0.641143 0.825238
0.824888 0.641143 0.825238
0.949196 0.641143 0.825238
1.000000 0.641143 0.825238
0.020000 0.774328 0.825238
0.119004 0.774328 0.825238
0.243312 0.774328 0.825238
0.384489 0.774328 0.825238
0.534100 0.774328 0.825238
0.683711 0.774328 0.825238
0.824888 0.774328 0.825238
0.949196 0.774328 0.825238
1.000000 0.774328 0.825238
0.020000 0.891600 0.825238
0.119004 0.891600 0.825238
0.243312 0.891600 0.825238
0.384489 0.891600 0.825238
0.534100 0.891600 0.825238
0.683711 0.891600 0.825238
0.824888 0.891600 0.825238
0.949196 0.891600 0.825238
1.000000 0.891600 0.825238
0.020000 0.985000 0.825238
0.119004 0.985000 0.825238
0.243312 0.985000 0.825238
0.384489 0.985000 0.825238
0.534100 0.985000 0.825238
0.683711 0.985000 0.825238
0.824888 0.985000 0.825238
0.949196 0.985000 0.825238
1.000000 0.985000 0.825238
0.020000 0.015000 0.912100
0.119004 0.015000 0.912100
0.243312 0.015000 0.912100
0.384489 0.015000 0.912100
0.534100 0.015000 0.912100
0.683711 0.015000 0.912100
0.824888 0.015000 0.912100
0.949196 0.015000 0.912100
1.000000 0.015000 0.912100
0.020000 0.108400 0.912100
0.119004 0.108400 0.912100
0.243312 0.108400 0.912100
0.384489 0.108400 0.912100
0.534100 0.108400 0.912100
0.683711 0.108400 0.912100
0.824888 0.108400 0.912100
0.949196 0.108400 0.912100
1.000000 0.108400 0.912100
0.020000 0.225672 0.912100
0.119004 0.225672 0.912100
0.243312 0.225672 0.912100
0.384489 0.225672 0.912100
0.534100 0.225672 0.912100
0.683711 0.225672 0.912100
0.824888 0.225672 0.912100
0.949196 0.225672 0.912100
1.000000 0.225672 0.912100
0.020000 0.358857 0.912100
0.119004 0.358857 0.912100
0.243312 0.358857 0.912100
0.384489 0.358857 0.912100
0.534100 0.358857 0.912100
0.683711 0.358857 0.912100
0.824888 0.358857 0.912100
0.949196 0.358857 0.912100
1.000000 0.358857 0.912100
0.020000 0.500000 0.912100
0.119004 0.500000 0.912100
0.243312 0.500000 0.912100
0.384489 0.500000 0.912100
0.534100 0.500000 0.912100
0.683711 0.500000 0.912100
0.824888 0.500000 0.912100
0.949196 0.500000 0.912100
1.000000 0.500000 0.912100
0.020000 0.641143 0.912100
0.119004 0.641143 0.912100
0.243312 0.641143 0.912100
0.384489 0.641143 0.912100
0.534100 0.641143 0.912100
0.683711 0.641143 0.912100
0.824888 0.641143 0.912100
0.949196 0.641143 0.912100
1.000000 0.641143 0.912100
0.020000 0.774328 0.912100
0.119004 0.774328 0.912100
0.243312 0.774328 0.912100
0.384489 0.774328 0.912100
0.534100 0.774328 0.912100
0.683711 0.774328 0.912100
0.824888 0.774328 0.912100
0.949196 0.774328 0.912100
1.000000 0.774328 0.912100
0.020000 0.891600 0.912100
0.119004 0.891600 0.912100
0.243312 0.891600 0.912100
0.384489 0.891600 0.912100
0.534100 0.891600 0.912100
0.683711 0.891600 0.912100
0.824888 0.891600 0.912100
0.949196 0.891600 0.912100
1.000000 0.891600 0.912100
0.020000 0.985000 0.912100
0.119004 0.985000 0.912100
0.243312 0.985000 0.912100
0.384489 0.985000 0.912100
0.534100 0.985000 0.912100
0.683711 0.985000 0.912100
0.824888 0.985000 0.912100
0.949196 0.985000 0.912100
1.000000 0.985000 0.912100
